( Made using CamBam - http://www.cambam.info )
( end_spacer_block 2/28/2013 9:44:15 PM )
( T0 : 0.25 )
G20 G90 G64 G40
G0 Z0.5
( T0 : 0.25 )
T0 M6
( Drill1 )
G17
G0 X0.375 Y2.5
G98
G81 X0.375 Y2.5 Z-0.8 R0.0 F6.0
G81 Y0.5 Z-0.8
G81 X5.0 Z-0.8
G81 Y2.5 Z-0.8
G80
( Pocket1 )
M01
G0 Z0.5
G0 X0.5 Y1.4658
G0 Z0.0625
G1 F6.0 Z-0.125
G1 F20.0 X4.875
G1 Y1.5343
G1 X0.5
G1 Y1.4658
G0 Z0.5
G0 Y1.3408
G0 Z0.0625
G1 F6.0 Z-0.125
G1 F20.0 X5.0
G1 Y1.6593
G1 X0.375
G1 Y1.3408
G1 X0.5
G0 Z0.5
G0 Y1.2158
G0 Z0.0625
G1 F6.0 Z-0.125
G1 F20.0 X5.125
G1 Y1.7843
G1 X0.25
G1 Y1.2158
G1 X0.5
G0 Z0.5
G0 Y1.0908
G0 Z0.0625
G1 F6.0 Z-0.125
G1 F20.0 X5.25
G1 Y1.9093
G1 X0.125
G1 Y1.0908
G1 X0.5
( Profile1 )
G0 Z0.5
G0 X0.0 Y-0.125
G0 Z0.0625
G1 F6.0 Z-0.25
G1 F20.0 X5.375
G3 X5.5 Y0.0 I0.0 J0.125
G1 Y3.0
G3 X5.375 Y3.125 I-0.125 J0.0
G1 X0.0
G3 X-0.125 Y3.0 I0.0 J-0.125
G1 Y0.0
G3 X0.0 Y-0.125 I0.125 J0.0
G1 F6.0 Z-0.5
G1 F20.0 X5.375
G3 X5.5 Y0.0 I0.0 J0.125
G1 Y3.0
G3 X5.375 Y3.125 I-0.125 J0.0
G1 X0.0
G3 X-0.125 Y3.0 I0.0 J-0.125
G1 Y0.0
G3 X0.0 Y-0.125 I0.125 J0.0
G1 F6.0 Z-0.75
G1 F20.0 X5.375
G3 X5.5 Y0.0 I0.0 J0.125
G1 Y3.0
G3 X5.375 Y3.125 I-0.125 J0.0
G1 X0.0
G3 X-0.125 Y3.0 I0.0 J-0.125
G1 Y0.0
G3 X0.0 Y-0.125 I0.125 J0.0
G1 F6.0 Z-0.8
G1 F20.0 X5.375
G3 X5.5 Y0.0 I0.0 J0.125
G1 Y3.0
G3 X5.375 Y3.125 I-0.125 J0.0
G1 X0.0
G3 X-0.125 Y3.0 I0.0 J-0.125
G1 Y0.0
G3 X0.0 Y-0.125 I0.125 J0.0
G0 Z0.5
M30
