( Made using CamBam - http://www.cambam.info )
( scre_rail 3/7/2013 11:10:19 PM )
( T0 : 0.125 )
G20 G90 G64 G40
G0 Z0.5
( T0 : 0.125 )
T0 M6
( Pocket1 )
G17
G0 X0.0 Y-0.0313
G0 Z0.0625
G1 F3.0 Z-0.01
G1 F12.0 X0.0313
G1 Y0.0313
G1 X-0.0313
G1 Y-0.0313
G1 X0.0
G1 F3.0 Y-0.0625
G1 F12.0 X0.0625
G1 Y0.0625
G1 X-0.0625
G1 Y-0.0625
G1 X0.0
G1 F3.0 Y-0.125
G1 F12.0 X0.125
G1 Y0.125
G1 X-0.125
G1 Y-0.125
G1 X0.0
G1 F3.0 Y-0.1875
G1 F12.0 X0.1875
G1 Y0.1875
G1 X-0.1875
G1 Y-0.1875
G1 X0.0
G0 Z0.5
G0 Y-0.0313
G0 Z0.0525
G1 F3.0 Z-0.02
G1 F12.0 X0.0313
G1 Y0.0313
G1 X-0.0313
G1 Y-0.0313
G1 X0.0
G1 F3.0 Y-0.0625
G1 F12.0 X0.0625
G1 Y0.0625
G1 X-0.0625
G1 Y-0.0625
G1 X0.0
G1 F3.0 Y-0.125
G1 F12.0 X0.125
G1 Y0.125
G1 X-0.125
G1 Y-0.125
G1 X0.0
G1 F3.0 Y-0.1875
G1 F12.0 X0.1875
G1 Y0.1875
G1 X-0.1875
G1 Y-0.1875
G1 X0.0
G0 Z0.5
G0 Y-0.0313
G0 Z0.0425
G1 F3.0 Z-0.03
G1 F12.0 X0.0313
G1 Y0.0313
G1 X-0.0313
G1 Y-0.0313
G1 X0.0
G1 F3.0 Y-0.0625
G1 F12.0 X0.0625
G1 Y0.0625
G1 X-0.0625
G1 Y-0.0625
G1 X0.0
G1 F3.0 Y-0.125
G1 F12.0 X0.125
G1 Y0.125
G1 X-0.125
G1 Y-0.125
G1 X0.0
G1 F3.0 Y-0.1875
G1 F12.0 X0.1875
G1 Y0.1875
G1 X-0.1875
G1 Y-0.1875
G1 X0.0
G0 Z0.5
G0 Y-0.0313
G0 Z0.0325
G1 F3.0 Z-0.04
G1 F12.0 X0.0313
G1 Y0.0313
G1 X-0.0313
G1 Y-0.0313
G1 X0.0
G1 F3.0 Y-0.0625
G1 F12.0 X0.0625
G1 Y0.0625
G1 X-0.0625
G1 Y-0.0625
G1 X0.0
G1 F3.0 Y-0.125
G1 F12.0 X0.125
G1 Y0.125
G1 X-0.125
G1 Y-0.125
G1 X0.0
G1 F3.0 Y-0.1875
G1 F12.0 X0.1875
G1 Y0.1875
G1 X-0.1875
G1 Y-0.1875
G1 X0.0
G0 Z0.5
G0 Y-0.0313
G0 Z0.0225
G1 F3.0 Z-0.05
G1 F12.0 X0.0313
G1 Y0.0313
G1 X-0.0313
G1 Y-0.0313
G1 X0.0
G1 F3.0 Y-0.0625
G1 F12.0 X0.0625
G1 Y0.0625
G1 X-0.0625
G1 Y-0.0625
G1 X0.0
G1 F3.0 Y-0.125
G1 F12.0 X0.125
G1 Y0.125
G1 X-0.125
G1 Y-0.125
G1 X0.0
G1 F3.0 Y-0.1875
G1 F12.0 X0.1875
G1 Y0.1875
G1 X-0.1875
G1 Y-0.1875
G1 X0.0
G0 Z0.5
G0 Y-0.0313
G0 Z0.0125
G1 F3.0 Z-0.06
G1 F12.0 X0.0313
G1 Y0.0313
G1 X-0.0313
G1 Y-0.0313
G1 X0.0
G1 F3.0 Y-0.0625
G1 F12.0 X0.0625
G1 Y0.0625
G1 X-0.0625
G1 Y-0.0625
G1 X0.0
G1 F3.0 Y-0.125
G1 F12.0 X0.125
G1 Y0.125
G1 X-0.125
G1 Y-0.125
G1 X0.0
G1 F3.0 Y-0.1875
G1 F12.0 X0.1875
G1 Y0.1875
G1 X-0.1875
G1 Y-0.1875
G1 X0.0
G0 Z0.5
G0 Y-0.0313
G0 Z0.0025
G1 F3.0 Z-0.07
G1 F12.0 X0.0313
G1 Y0.0313
G1 X-0.0313
G1 Y-0.0313
G1 X0.0
G1 F3.0 Y-0.0625
G1 F12.0 X0.0625
G1 Y0.0625
G1 X-0.0625
G1 Y-0.0625
G1 X0.0
G1 F3.0 Y-0.125
G1 F12.0 X0.125
G1 Y0.125
G1 X-0.125
G1 Y-0.125
G1 X0.0
G1 F3.0 Y-0.1875
G1 F12.0 X0.1875
G1 Y0.1875
G1 X-0.1875
G1 Y-0.1875
G1 X0.0
G0 Z0.5
G0 Y-0.0313
G0 Z-0.0075
G1 F3.0 Z-0.08
G1 F12.0 X0.0313
G1 Y0.0313
G1 X-0.0313
G1 Y-0.0313
G1 X0.0
G1 F3.0 Y-0.0625
G1 F12.0 X0.0625
G1 Y0.0625
G1 X-0.0625
G1 Y-0.0625
G1 X0.0
G1 F3.0 Y-0.125
G1 F12.0 X0.125
G1 Y0.125
G1 X-0.125
G1 Y-0.125
G1 X0.0
G1 F3.0 Y-0.1875
G1 F12.0 X0.1875
G1 Y0.1875
G1 X-0.1875
G1 Y-0.1875
G1 X0.0
G0 Z0.5
G0 Y-0.0313
G0 Z-0.0175
G1 F3.0 Z-0.09
G1 F12.0 X0.0313
G1 Y0.0313
G1 X-0.0313
G1 Y-0.0313
G1 X0.0
G1 F3.0 Y-0.0625
G1 F12.0 X0.0625
G1 Y0.0625
G1 X-0.0625
G1 Y-0.0625
G1 X0.0
G1 F3.0 Y-0.125
G1 F12.0 X0.125
G1 Y0.125
G1 X-0.125
G1 Y-0.125
G1 X0.0
G1 F3.0 Y-0.1875
G1 F12.0 X0.1875
G1 Y0.1875
G1 X-0.1875
G1 Y-0.1875
G1 X0.0
G0 Z0.5
G0 Y-0.0313
G0 Z-0.0275
G1 F3.0 Z-0.1
G1 F12.0 X0.0313
G1 Y0.0313
G1 X-0.0313
G1 Y-0.0313
G1 X0.0
G1 F3.0 Y-0.0625
G1 F12.0 X0.0625
G1 Y0.0625
G1 X-0.0625
G1 Y-0.0625
G1 X0.0
G1 F3.0 Y-0.125
G1 F12.0 X0.125
G1 Y0.125
G1 X-0.125
G1 Y-0.125
G1 X0.0
G1 F3.0 Y-0.1875
G1 F12.0 X0.1875
G1 Y0.1875
G1 X-0.1875
G1 Y-0.1875
G1 X0.0
G0 Z0.5
G0 Y-0.0313
G0 Z-0.0375
G1 F3.0 Z-0.11
G1 F12.0 X0.0313
G1 Y0.0313
G1 X-0.0313
G1 Y-0.0313
G1 X0.0
G1 F3.0 Y-0.0625
G1 F12.0 X0.0625
G1 Y0.0625
G1 X-0.0625
G1 Y-0.0625
G1 X0.0
G1 F3.0 Y-0.125
G1 F12.0 X0.125
G1 Y0.125
G1 X-0.125
G1 Y-0.125
G1 X0.0
G1 F3.0 Y-0.1875
G1 F12.0 X0.1875
G1 Y0.1875
G1 X-0.1875
G1 Y-0.1875
G1 X0.0
G0 Z0.5
G0 Y-0.0313
G0 Z-0.0475
G1 F3.0 Z-0.12
G1 F12.0 X0.0313
G1 Y0.0313
G1 X-0.0313
G1 Y-0.0313
G1 X0.0
G1 F3.0 Y-0.0625
G1 F12.0 X0.0625
G1 Y0.0625
G1 X-0.0625
G1 Y-0.0625
G1 X0.0
G1 F3.0 Y-0.125
G1 F12.0 X0.125
G1 Y0.125
G1 X-0.125
G1 Y-0.125
G1 X0.0
G1 F3.0 Y-0.1875
G1 F12.0 X0.1875
G1 Y0.1875
G1 X-0.1875
G1 Y-0.1875
G1 X0.0
G0 Z0.5
G0 Y-0.0313
G0 Z-0.0575
G1 F3.0 Z-0.125
G1 F12.0 X0.0313
G1 Y0.0313
G1 X-0.0313
G1 Y-0.0313
G1 X0.0
G1 F3.0 Y-0.0625
G1 F12.0 X0.0625
G1 Y0.0625
G1 X-0.0625
G1 Y-0.0625
G1 X0.0
G1 F3.0 Y-0.125
G1 F12.0 X0.125
G1 Y0.125
G1 X-0.125
G1 Y-0.125
G1 X0.0
G1 F3.0 Y-0.1875
G1 F12.0 X0.1875
G1 Y0.1875
G1 X-0.1875
G1 Y-0.1875
G1 X0.0
( Drill1 )
G0 Z0.5
G0 Y0.0
G98
G81 X0.0 Y0.0 Z-0.375 R0.0 F3.0
G80
G0 Z0.5
M30
