( Made using CamBam - http://www.cambam.info )
( carriage_front 3/27/2013 12:10:33 AM )
( T0 : 0.25 )
G20 G90 G64 G40
G0 Z0.25
( T0 : 0.25 )
T0 M6
( holes )
G17
G0 X0.737 Y0.4913
G0 Z0.0625
G1 F6.0 Z-0.125
G3 F20.0 X0.7422 Y0.4865 I0.013 J0.0087
G3 X0.7656 Y0.5 I0.0078 J0.0135
G3 X0.7422 Y0.5135 I-0.0156 J0.0
G3 X0.737 Y0.4913 I0.0078 J-0.0135
G1 F6.0 X0.685 Y0.4567
G3 F20.0 X0.7109 Y0.4323 I0.065 J0.0433
G3 X0.8281 Y0.5 I0.0391 J0.0677
G3 X0.7109 Y0.5677 I-0.0781 J0.0
G3 X0.685 Y0.4567 I0.0391 J-0.0677
G0 Z0.25
G0 X2.2344 Y0.4996
G0 Z0.0625
G1 F6.0 Z-0.125
G3 F20.0 X2.2422 Y0.4865 I0.0156 J0.0004
G3 X2.2656 Y0.5 I0.0078 J0.0135
G3 X2.2422 Y0.5135 I-0.0156 J0.0
G3 X2.2344 Y0.4996 I0.0078 J-0.0135
G1 F6.0 X2.1719 Y0.4978
G3 F20.0 X2.2109 Y0.4323 I0.0781 J0.0022
G3 X2.3281 Y0.5 I0.0391 J0.0677
G3 X2.2109 Y0.5677 I-0.0781 J0.0
G3 X2.1719 Y0.4978 I0.0391 J-0.0677
G0 Z0.25
G0 X3.7344 Y0.5
G0 Z0.0625
G1 F6.0 Z-0.125
G3 F20.0 X3.7422 Y0.4865 I0.0156 J0.0
G3 X3.7656 Y0.5 I0.0078 J0.0135
G3 X3.7422 Y0.5135 I-0.0156 J0.0
G3 X3.7344 Y0.5 I0.0078 J-0.0135
G1 F6.0 X3.6719 Y0.4999
G3 F20.0 X3.7109 Y0.4323 I0.0781 J0.0001
G3 X3.8281 Y0.5 I0.0391 J0.0677
G3 X3.7109 Y0.5677 I-0.0781 J0.0
G3 X3.6719 Y0.4999 I0.0391 J-0.0677
G0 Z0.25
G0 X3.7498 Y6.1593
G0 Z0.0625
G1 F6.0 Z-0.125
G3 F20.0 X3.7656 Y6.1749 I0.0002 J0.0156
G3 X3.7422 Y6.1884 I-0.0156 J0.0
G3 Y6.1614 I0.0078 J-0.0135
G3 X3.7498 Y6.1593 I0.0078 J0.0135
G1 F6.0 X3.7489 Y6.0968
G3 F20.0 X3.8281 Y6.1749 I0.0011 J0.0781
G3 X3.7109 Y6.2426 I-0.0781 J0.0
G3 Y6.1072 I0.0391 J-0.0677
G3 X3.7489 Y6.0968 I0.0391 J0.0677
G0 Z0.25
G0 X2.2656 Y6.1741
G0 Z0.0625
G1 F6.0 Z-0.125
G1 F20.0 Y6.1749
G3 X2.2422 Y6.1884 I-0.0156 J0.0
G3 Y6.1614 I0.0078 J-0.0135
G3 X2.2656 Y6.1741 I0.0078 J0.0135
G1 F6.0 X2.328 Y6.1708
G3 F20.0 X2.3281 Y6.1749 I-0.078 J0.0041
G3 X2.2109 Y6.2426 I-0.0781 J0.0
G3 Y6.1072 I0.0391 J-0.0677
G3 X2.328 Y6.1708 I0.0391 J0.0677
G0 Z0.25
G0 X0.7656 Y6.1749
G0 Z0.0625
G1 F6.0 Z-0.125
G3 F20.0 X0.7422 Y6.1884 I-0.0156 J0.0
G3 Y6.1614 I0.0078 J-0.0135
G3 X0.7656 Y6.1749 I0.0078 J0.0135
G1 F6.0 X0.8281 Y6.1747
G1 F20.0 Y6.1749
G3 X0.7109 Y6.2426 I-0.0781 J0.0
G3 Y6.1072 I0.0391 J-0.0677
G3 X0.8281 Y6.1747 I0.0391 J0.0677
G1 F6.0 X0.7656 Y6.1749
G1 Z-0.25
G3 F20.0 X0.7422 Y6.1884 I-0.0156 J0.0
G3 Y6.1614 I0.0078 J-0.0135
G3 X0.7656 Y6.1749 I0.0078 J0.0135
G1 F6.0 X0.8281 Y6.1747
G1 F20.0 Y6.1749
G3 X0.7109 Y6.2426 I-0.0781 J0.0
G3 Y6.1072 I0.0391 J-0.0677
G3 X0.8281 Y6.1747 I0.0391 J0.0677
G0 Z0.25
G0 X2.2344 Y6.1749
G0 Z-0.0625
G1 F6.0 Z-0.25
G3 F20.0 X2.2422 Y6.1614 I0.0156 J0.0
G3 X2.2656 Y6.1749 I0.0078 J0.0135
G3 X2.2422 Y6.1884 I-0.0156 J0.0
G3 X2.2344 Y6.1749 I0.0078 J-0.0135
G1 F6.0 X2.1719
G3 F20.0 X2.2109 Y6.1072 I0.0781 J0.0
G3 X2.3281 Y6.1749 I0.0391 J0.0677
G3 X2.2109 Y6.2426 I-0.0781 J0.0
G3 X2.1719 Y6.1749 I0.0391 J-0.0677
G0 Z0.25
G0 X3.7344
G0 Z-0.0625
G1 F6.0 Z-0.25
G3 F20.0 X3.7422 Y6.1614 I0.0156 J0.0
G3 X3.7656 Y6.1749 I0.0078 J0.0135
G3 X3.7422 Y6.1884 I-0.0156 J0.0
G3 X3.7344 Y6.1749 I0.0078 J-0.0135
G1 F6.0 X3.6719
G3 F20.0 X3.7109 Y6.1072 I0.0781 J0.0
G3 X3.8281 Y6.1749 I0.0391 J0.0677
G3 X3.7109 Y6.2426 I-0.0781 J0.0
G3 X3.6719 Y6.1749 I0.0391 J-0.0677
G0 Z0.25
G0 X3.7498 Y0.5156
G0 Z-0.0625
G1 F6.0 Z-0.25
G3 F20.0 X3.7422 Y0.5135 I0.0002 J-0.0156
G3 Y0.4865 I0.0078 J-0.0135
G3 X3.7656 Y0.5 I0.0078 J0.0135
G3 X3.7498 Y0.5156 I-0.0156 J0.0
G1 F6.0 X3.7489 Y0.5781
G3 F20.0 X3.7109 Y0.5677 I0.0011 J-0.0781
G3 Y0.4323 I0.0391 J-0.0677
G3 X3.8281 Y0.5 I0.0391 J0.0677
G3 X3.7489 Y0.5781 I-0.0781 J0.0
G0 Z0.25
G0 X2.2656 Y0.5008
G0 Z-0.0625
G1 F6.0 Z-0.25
G3 F20.0 X2.2422 Y0.5135 I-0.0156 J-0.0008
G3 Y0.4865 I0.0078 J-0.0135
G3 X2.2656 Y0.5 I0.0078 J0.0135
G1 Y0.5008
G1 F6.0 X2.328 Y0.5041
G3 F20.0 X2.2109 Y0.5677 I-0.078 J-0.0041
G3 Y0.4323 I0.0391 J-0.0677
G3 X2.3281 Y0.5 I0.0391 J0.0677
G3 X2.328 Y0.5041 I-0.0781 J0.0
G0 Z0.25
G0 X0.7656 Y0.5
G0 Z-0.0625
G1 F6.0 Z-0.25
G3 F20.0 X0.7422 Y0.5135 I-0.0156 J0.0
G3 Y0.4865 I0.0078 J-0.0135
G3 X0.7656 Y0.5 I0.0078 J0.0135
G1 F6.0 X0.8281 Y0.5002
G3 F20.0 X0.7109 Y0.5677 I-0.0781 J-0.0002
G3 Y0.4323 I0.0391 J-0.0677
G3 X0.8281 Y0.5 I0.0391 J0.0677
G1 Y0.5002
G1 F6.0 X0.7656 Y0.5
G1 Z-0.375
G3 F20.0 X0.7422 Y0.5135 I-0.0156 J0.0
G3 Y0.4865 I0.0078 J-0.0135
G3 X0.7656 Y0.5 I0.0078 J0.0135
G1 F6.0 X0.8281 Y0.5002
G3 F20.0 X0.7109 Y0.5677 I-0.0781 J-0.0002
G3 Y0.4323 I0.0391 J-0.0677
G3 X0.8281 Y0.5 I0.0391 J0.0677
G1 Y0.5002
G0 Z0.25
G0 X2.2344 Y0.5
G0 Z-0.1875
G1 F6.0 Z-0.375
G3 F20.0 X2.2422 Y0.4865 I0.0156 J0.0
G3 X2.2656 Y0.5 I0.0078 J0.0135
G3 X2.2422 Y0.5135 I-0.0156 J0.0
G3 X2.2344 Y0.5 I0.0078 J-0.0135
G1 F6.0 X2.1719
G3 F20.0 X2.2109 Y0.4323 I0.0781 J0.0
G3 X2.3281 Y0.5 I0.0391 J0.0677
G3 X2.2109 Y0.5677 I-0.0781 J0.0
G3 X2.1719 Y0.5 I0.0391 J-0.0677
G0 Z0.25
G0 X3.7344
G0 Z-0.1875
G1 F6.0 Z-0.375
G3 F20.0 X3.7422 Y0.4865 I0.0156 J0.0
G3 X3.7656 Y0.5 I0.0078 J0.0135
G3 X3.7422 Y0.5135 I-0.0156 J0.0
G3 X3.7344 Y0.5 I0.0078 J-0.0135
G1 F6.0 X3.6719
G3 F20.0 X3.7109 Y0.4323 I0.0781 J0.0
G3 X3.8281 Y0.5 I0.0391 J0.0677
G3 X3.7109 Y0.5677 I-0.0781 J0.0
G3 X3.6719 Y0.5 I0.0391 J-0.0677
G0 Z0.25
G0 X3.7498 Y6.1593
G0 Z-0.1875
G1 F6.0 Z-0.375
G3 F20.0 X3.7656 Y6.1749 I0.0002 J0.0156
G3 X3.7422 Y6.1884 I-0.0156 J0.0
G3 Y6.1614 I0.0078 J-0.0135
G3 X3.7498 Y6.1593 I0.0078 J0.0135
G1 F6.0 X3.7489 Y6.0968
G3 F20.0 X3.8281 Y6.1749 I0.0011 J0.0781
G3 X3.7109 Y6.2426 I-0.0781 J0.0
G3 Y6.1072 I0.0391 J-0.0677
G3 X3.7489 Y6.0968 I0.0391 J0.0677
G0 Z0.25
G0 X2.2656 Y6.1741
G0 Z-0.1875
G1 F6.0 Z-0.375
G1 F20.0 Y6.1749
G3 X2.2422 Y6.1884 I-0.0156 J0.0
G3 Y6.1614 I0.0078 J-0.0135
G3 X2.2656 Y6.1741 I0.0078 J0.0135
G1 F6.0 X2.328 Y6.1708
G3 F20.0 X2.3281 Y6.1749 I-0.078 J0.0041
G3 X2.2109 Y6.2426 I-0.0781 J0.0
G3 Y6.1072 I0.0391 J-0.0677
G3 X2.328 Y6.1708 I0.0391 J0.0677
G0 Z0.25
G0 X0.7656 Y6.1749
G0 Z-0.1875
G1 F6.0 Z-0.375
G3 F20.0 X0.7422 Y6.1884 I-0.0156 J0.0
G3 Y6.1614 I0.0078 J-0.0135
G3 X0.7656 Y6.1749 I0.0078 J0.0135
G1 F6.0 X0.8281 Y6.1747
G1 F20.0 Y6.1749
G3 X0.7109 Y6.2426 I-0.0781 J0.0
G3 Y6.1072 I0.0391 J-0.0677
G3 X0.8281 Y6.1747 I0.0391 J0.0677
G1 F6.0 X0.7656 Y6.1749
G1 Z-0.5
G3 F20.0 X0.7422 Y6.1884 I-0.0156 J0.0
G3 Y6.1614 I0.0078 J-0.0135
G3 X0.7656 Y6.1749 I0.0078 J0.0135
G1 F6.0 X0.8281 Y6.1747
G1 F20.0 Y6.1749
G3 X0.7109 Y6.2426 I-0.0781 J0.0
G3 Y6.1072 I0.0391 J-0.0677
G3 X0.8281 Y6.1747 I0.0391 J0.0677
G0 Z0.25
G0 X2.2344 Y6.1749
G0 Z-0.3125
G1 F6.0 Z-0.5
G3 F20.0 X2.2422 Y6.1614 I0.0156 J0.0
G3 X2.2656 Y6.1749 I0.0078 J0.0135
G3 X2.2422 Y6.1884 I-0.0156 J0.0
G3 X2.2344 Y6.1749 I0.0078 J-0.0135
G1 F6.0 X2.1719
G3 F20.0 X2.2109 Y6.1072 I0.0781 J0.0
G3 X2.3281 Y6.1749 I0.0391 J0.0677
G3 X2.2109 Y6.2426 I-0.0781 J0.0
G3 X2.1719 Y6.1749 I0.0391 J-0.0677
G0 Z0.25
G0 X3.7344
G0 Z-0.3125
G1 F6.0 Z-0.5
G3 F20.0 X3.7422 Y6.1614 I0.0156 J0.0
G3 X3.7656 Y6.1749 I0.0078 J0.0135
G3 X3.7422 Y6.1884 I-0.0156 J0.0
G3 X3.7344 Y6.1749 I0.0078 J-0.0135
G1 F6.0 X3.6719
G3 F20.0 X3.7109 Y6.1072 I0.0781 J0.0
G3 X3.8281 Y6.1749 I0.0391 J0.0677
G3 X3.7109 Y6.2426 I-0.0781 J0.0
G3 X3.6719 Y6.1749 I0.0391 J-0.0677
G0 Z0.25
G0 X3.7498 Y0.5156
G0 Z-0.3125
G1 F6.0 Z-0.5
G3 F20.0 X3.7422 Y0.5135 I0.0002 J-0.0156
G3 Y0.4865 I0.0078 J-0.0135
G3 X3.7656 Y0.5 I0.0078 J0.0135
G3 X3.7498 Y0.5156 I-0.0156 J0.0
G1 F6.0 X3.7489 Y0.5781
G3 F20.0 X3.7109 Y0.5677 I0.0011 J-0.0781
G3 Y0.4323 I0.0391 J-0.0677
G3 X3.8281 Y0.5 I0.0391 J0.0677
G3 X3.7489 Y0.5781 I-0.0781 J0.0
G0 Z0.25
G0 X2.2656 Y0.5008
G0 Z-0.3125
G1 F6.0 Z-0.5
G3 F20.0 X2.2422 Y0.5135 I-0.0156 J-0.0008
G3 Y0.4865 I0.0078 J-0.0135
G3 X2.2656 Y0.5 I0.0078 J0.0135
G1 Y0.5008
G1 F6.0 X2.328 Y0.5041
G3 F20.0 X2.2109 Y0.5677 I-0.078 J-0.0041
G3 Y0.4323 I0.0391 J-0.0677
G3 X2.3281 Y0.5 I0.0391 J0.0677
G3 X2.328 Y0.5041 I-0.0781 J0.0
G0 Z0.25
G0 X0.7656 Y0.5
G0 Z-0.3125
G1 F6.0 Z-0.5
G3 F20.0 X0.7422 Y0.5135 I-0.0156 J0.0
G3 Y0.4865 I0.0078 J-0.0135
G3 X0.7656 Y0.5 I0.0078 J0.0135
G1 F6.0 X0.8281 Y0.5002
G3 F20.0 X0.7109 Y0.5677 I-0.0781 J-0.0002
G3 Y0.4323 I0.0391 J-0.0677
G3 X0.8281 Y0.5 I0.0391 J0.0677
G1 Y0.5002
G1 F6.0 X0.7656 Y0.5
G1 Z-0.625
G3 F20.0 X0.7422 Y0.5135 I-0.0156 J0.0
G3 Y0.4865 I0.0078 J-0.0135
G3 X0.7656 Y0.5 I0.0078 J0.0135
G1 F6.0 X0.8281 Y0.5002
G3 F20.0 X0.7109 Y0.5677 I-0.0781 J-0.0002
G3 Y0.4323 I0.0391 J-0.0677
G3 X0.8281 Y0.5 I0.0391 J0.0677
G1 Y0.5002
G0 Z0.25
G0 X2.2344 Y0.5
G0 Z-0.4375
G1 F6.0 Z-0.625
G3 F20.0 X2.2422 Y0.4865 I0.0156 J0.0
G3 X2.2656 Y0.5 I0.0078 J0.0135
G3 X2.2422 Y0.5135 I-0.0156 J0.0
G3 X2.2344 Y0.5 I0.0078 J-0.0135
G1 F6.0 X2.1719
G3 F20.0 X2.2109 Y0.4323 I0.0781 J0.0
G3 X2.3281 Y0.5 I0.0391 J0.0677
G3 X2.2109 Y0.5677 I-0.0781 J0.0
G3 X2.1719 Y0.5 I0.0391 J-0.0677
G0 Z0.25
G0 X3.7344
G0 Z-0.4375
G1 F6.0 Z-0.625
G3 F20.0 X3.7422 Y0.4865 I0.0156 J0.0
G3 X3.7656 Y0.5 I0.0078 J0.0135
G3 X3.7422 Y0.5135 I-0.0156 J0.0
G3 X3.7344 Y0.5 I0.0078 J-0.0135
G1 F6.0 X3.6719
G3 F20.0 X3.7109 Y0.4323 I0.0781 J0.0
G3 X3.8281 Y0.5 I0.0391 J0.0677
G3 X3.7109 Y0.5677 I-0.0781 J0.0
G3 X3.6719 Y0.5 I0.0391 J-0.0677
G0 Z0.25
G0 X3.7498 Y6.1593
G0 Z-0.4375
G1 F6.0 Z-0.625
G3 F20.0 X3.7656 Y6.1749 I0.0002 J0.0156
G3 X3.7422 Y6.1884 I-0.0156 J0.0
G3 Y6.1614 I0.0078 J-0.0135
G3 X3.7498 Y6.1593 I0.0078 J0.0135
G1 F6.0 X3.7489 Y6.0968
G3 F20.0 X3.8281 Y6.1749 I0.0011 J0.0781
G3 X3.7109 Y6.2426 I-0.0781 J0.0
G3 Y6.1072 I0.0391 J-0.0677
G3 X3.7489 Y6.0968 I0.0391 J0.0677
G0 Z0.25
G0 X2.2656 Y6.1741
G0 Z-0.4375
G1 F6.0 Z-0.625
G1 F20.0 Y6.1749
G3 X2.2422 Y6.1884 I-0.0156 J0.0
G3 Y6.1614 I0.0078 J-0.0135
G3 X2.2656 Y6.1741 I0.0078 J0.0135
G1 F6.0 X2.328 Y6.1708
G3 F20.0 X2.3281 Y6.1749 I-0.078 J0.0041
G3 X2.2109 Y6.2426 I-0.0781 J0.0
G3 Y6.1072 I0.0391 J-0.0677
G3 X2.328 Y6.1708 I0.0391 J0.0677
G0 Z0.25
G0 X0.7656 Y6.1749
G0 Z-0.4375
G1 F6.0 Z-0.625
G3 F20.0 X0.7422 Y6.1884 I-0.0156 J0.0
G3 Y6.1614 I0.0078 J-0.0135
G3 X0.7656 Y6.1749 I0.0078 J0.0135
G1 F6.0 X0.8281 Y6.1747
G1 F20.0 Y6.1749
G3 X0.7109 Y6.2426 I-0.0781 J0.0
G3 Y6.1072 I0.0391 J-0.0677
G3 X0.8281 Y6.1747 I0.0391 J0.0677
G1 F6.0 X0.7656 Y6.1749
G1 Z-0.75
G3 F20.0 X0.7422 Y6.1884 I-0.0156 J0.0
G3 Y6.1614 I0.0078 J-0.0135
G3 X0.7656 Y6.1749 I0.0078 J0.0135
G1 F6.0 X0.8281 Y6.1747
G1 F20.0 Y6.1749
G3 X0.7109 Y6.2426 I-0.0781 J0.0
G3 Y6.1072 I0.0391 J-0.0677
G3 X0.8281 Y6.1747 I0.0391 J0.0677
G0 Z0.25
G0 X2.2344 Y6.1749
G0 Z-0.5625
G1 F6.0 Z-0.75
G3 F20.0 X2.2422 Y6.1614 I0.0156 J0.0
G3 X2.2656 Y6.1749 I0.0078 J0.0135
G3 X2.2422 Y6.1884 I-0.0156 J0.0
G3 X2.2344 Y6.1749 I0.0078 J-0.0135
G1 F6.0 X2.1719
G3 F20.0 X2.2109 Y6.1072 I0.0781 J0.0
G3 X2.3281 Y6.1749 I0.0391 J0.0677
G3 X2.2109 Y6.2426 I-0.0781 J0.0
G3 X2.1719 Y6.1749 I0.0391 J-0.0677
G0 Z0.25
G0 X3.7344
G0 Z-0.5625
G1 F6.0 Z-0.75
G3 F20.0 X3.7422 Y6.1614 I0.0156 J0.0
G3 X3.7656 Y6.1749 I0.0078 J0.0135
G3 X3.7422 Y6.1884 I-0.0156 J0.0
G3 X3.7344 Y6.1749 I0.0078 J-0.0135
G1 F6.0 X3.6719
G3 F20.0 X3.7109 Y6.1072 I0.0781 J0.0
G3 X3.8281 Y6.1749 I0.0391 J0.0677
G3 X3.7109 Y6.2426 I-0.0781 J0.0
G3 X3.6719 Y6.1749 I0.0391 J-0.0677
G0 Z0.25
G0 X3.7498 Y0.5156
G0 Z-0.5625
G1 F6.0 Z-0.75
G3 F20.0 X3.7422 Y0.5135 I0.0002 J-0.0156
G3 Y0.4865 I0.0078 J-0.0135
G3 X3.7656 Y0.5 I0.0078 J0.0135
G3 X3.7498 Y0.5156 I-0.0156 J0.0
G1 F6.0 X3.7489 Y0.5781
G3 F20.0 X3.7109 Y0.5677 I0.0011 J-0.0781
G3 Y0.4323 I0.0391 J-0.0677
G3 X3.8281 Y0.5 I0.0391 J0.0677
G3 X3.7489 Y0.5781 I-0.0781 J0.0
G0 Z0.25
G0 X2.2656 Y0.5008
G0 Z-0.5625
G1 F6.0 Z-0.75
G3 F20.0 X2.2422 Y0.5135 I-0.0156 J-0.0008
G3 Y0.4865 I0.0078 J-0.0135
G3 X2.2656 Y0.5 I0.0078 J0.0135
G1 Y0.5008
G1 F6.0 X2.328 Y0.5041
G3 F20.0 X2.2109 Y0.5677 I-0.078 J-0.0041
G3 Y0.4323 I0.0391 J-0.0677
G3 X2.3281 Y0.5 I0.0391 J0.0677
G3 X2.328 Y0.5041 I-0.0781 J0.0
G0 Z0.25
G0 X0.7656 Y0.5
G0 Z-0.5625
G1 F6.0 Z-0.75
G3 F20.0 X0.7422 Y0.5135 I-0.0156 J0.0
G3 Y0.4865 I0.0078 J-0.0135
G3 X0.7656 Y0.5 I0.0078 J0.0135
G1 F6.0 X0.8281 Y0.5002
G3 F20.0 X0.7109 Y0.5677 I-0.0781 J-0.0002
G3 Y0.4323 I0.0391 J-0.0677
G3 X0.8281 Y0.5 I0.0391 J0.0677
G1 Y0.5002
G1 F6.0 X0.7656 Y0.5
G1 Z-0.78
G3 F20.0 X0.7422 Y0.5135 I-0.0156 J0.0
G3 Y0.4865 I0.0078 J-0.0135
G3 X0.7656 Y0.5 I0.0078 J0.0135
G1 F6.0 X0.8281 Y0.5002
G3 F20.0 X0.7109 Y0.5677 I-0.0781 J-0.0002
G3 Y0.4323 I0.0391 J-0.0677
G3 X0.8281 Y0.5 I0.0391 J0.0677
G1 Y0.5002
G0 Z0.25
G0 X2.2344 Y0.5
G0 Z-0.5925
G1 F6.0 Z-0.78
G3 F20.0 X2.2422 Y0.4865 I0.0156 J0.0
G3 X2.2656 Y0.5 I0.0078 J0.0135
G3 X2.2422 Y0.5135 I-0.0156 J0.0
G3 X2.2344 Y0.5 I0.0078 J-0.0135
G1 F6.0 X2.1719
G3 F20.0 X2.2109 Y0.4323 I0.0781 J0.0
G3 X2.3281 Y0.5 I0.0391 J0.0677
G3 X2.2109 Y0.5677 I-0.0781 J0.0
G3 X2.1719 Y0.5 I0.0391 J-0.0677
G0 Z0.25
G0 X3.7344
G0 Z-0.5925
G1 F6.0 Z-0.78
G3 F20.0 X3.7422 Y0.4865 I0.0156 J0.0
G3 X3.7656 Y0.5 I0.0078 J0.0135
G3 X3.7422 Y0.5135 I-0.0156 J0.0
G3 X3.7344 Y0.5 I0.0078 J-0.0135
G1 F6.0 X3.6719
G3 F20.0 X3.7109 Y0.4323 I0.0781 J0.0
G3 X3.8281 Y0.5 I0.0391 J0.0677
G3 X3.7109 Y0.5677 I-0.0781 J0.0
G3 X3.6719 Y0.5 I0.0391 J-0.0677
G0 Z0.25
G0 X3.7498 Y6.1593
G0 Z-0.5925
G1 F6.0 Z-0.78
G3 F20.0 X3.7656 Y6.1749 I0.0002 J0.0156
G3 X3.7422 Y6.1884 I-0.0156 J0.0
G3 Y6.1614 I0.0078 J-0.0135
G3 X3.7498 Y6.1593 I0.0078 J0.0135
G1 F6.0 X3.7489 Y6.0968
G3 F20.0 X3.8281 Y6.1749 I0.0011 J0.0781
G3 X3.7109 Y6.2426 I-0.0781 J0.0
G3 Y6.1072 I0.0391 J-0.0677
G3 X3.7489 Y6.0968 I0.0391 J0.0677
G0 Z0.25
G0 X2.2656 Y6.1741
G0 Z-0.5925
G1 F6.0 Z-0.78
G1 F20.0 Y6.1749
G3 X2.2422 Y6.1884 I-0.0156 J0.0
G3 Y6.1614 I0.0078 J-0.0135
G3 X2.2656 Y6.1741 I0.0078 J0.0135
G1 F6.0 X2.328 Y6.1708
G3 F20.0 X2.3281 Y6.1749 I-0.078 J0.0041
G3 X2.2109 Y6.2426 I-0.0781 J0.0
G3 Y6.1072 I0.0391 J-0.0677
G3 X2.328 Y6.1708 I0.0391 J0.0677
G0 Z0.25
G0 X0.7656 Y6.1749
G0 Z-0.6875
G1 F6.0 Z-0.78
G3 F20.0 X0.7422 Y6.1884 I-0.0156 J0.0
G3 Y6.1614 I0.0078 J-0.0135
G3 X0.7656 Y6.1749 I0.0078 J0.0135
G1 F6.0 X0.8281 Y6.1747
G1 F20.0 Y6.1749
G3 X0.7109 Y6.2426 I-0.0781 J0.0
G3 Y6.1072 I0.0391 J-0.0677
G3 X0.8281 Y6.1747 I0.0391 J0.0677
( Profile1 )
G0 Z0.25
G0 X-0.1222 Y-0.0262
G0 Z0.0625
G1 F6.0 Z-0.125
G3 F20.0 X0.0 Y-0.125 I0.1222 J0.0262
G1 X4.5
G3 X4.625 Y0.0 I0.0 J0.125
G1 Y6.6749
G3 X4.5 Y6.7999 I-0.125 J0.0
G1 X0.0
G3 X-0.125 Y6.6749 I0.0 J-0.125
G1 Y0.0
G3 X-0.1222 Y-0.0262 I0.125 J0.0
G1 F6.0 Z-0.25
G3 F20.0 X0.0 Y-0.125 I0.1222 J0.0262
G1 X4.5
G3 X4.625 Y0.0 I0.0 J0.125
G1 Y6.6749
G3 X4.5 Y6.7999 I-0.125 J0.0
G1 X0.0
G3 X-0.125 Y6.6749 I0.0 J-0.125
G1 Y0.0
G3 X-0.1222 Y-0.0262 I0.125 J0.0
G1 F6.0 Z-0.375
G3 F20.0 X0.0 Y-0.125 I0.1222 J0.0262
G1 X4.5
G3 X4.625 Y0.0 I0.0 J0.125
G1 Y6.6749
G3 X4.5 Y6.7999 I-0.125 J0.0
G1 X0.0
G3 X-0.125 Y6.6749 I0.0 J-0.125
G1 Y0.0
G3 X-0.1222 Y-0.0262 I0.125 J0.0
G1 F6.0 Z-0.5
G3 F20.0 X0.0 Y-0.125 I0.1222 J0.0262
G1 X4.5
G3 X4.625 Y0.0 I0.0 J0.125
G1 Y6.6749
G3 X4.5 Y6.7999 I-0.125 J0.0
G1 X0.0
G3 X-0.125 Y6.6749 I0.0 J-0.125
G1 Y0.0
G3 X-0.1222 Y-0.0262 I0.125 J0.0
G1 F6.0 Z-0.625
G3 F20.0 X0.0 Y-0.125 I0.1222 J0.0262
G1 X4.5
G3 X4.625 Y0.0 I0.0 J0.125
G1 Y6.6749
G3 X4.5 Y6.7999 I-0.125 J0.0
G1 X0.0
G3 X-0.125 Y6.6749 I0.0 J-0.125
G1 Y0.0
G3 X-0.1222 Y-0.0262 I0.125 J0.0
G1 F6.0 Z-0.75
G3 F20.0 X0.0 Y-0.125 I0.1222 J0.0262
G1 X4.5
G3 X4.625 Y0.0 I0.0 J0.125
G1 Y6.6749
G3 X4.5 Y6.7999 I-0.125 J0.0
G1 X0.0
G3 X-0.125 Y6.6749 I0.0 J-0.125
G1 Y0.0
G3 X-0.1222 Y-0.0262 I0.125 J0.0
G0 Z0.25
M30
