( Made using CamBam - http://www.cambam.info )
( carriage_top_bottom 3/26/2013 11:17:44 PM )
( T0 : 0.25 )
G20 G90 G64 G40
G0 Z0.25
( T0 : 0.25 )
T0 M6
( Drill1 )
G17
G0 X0.3793 Y3.75
G98
G81 X0.3793 Y3.75 Z-0.78 R0.0 F6.0
G81 Y2.25 Z-0.78
G81 Y0.75 Z-0.78
G81 X5.3793 Z-0.78
G81 Y2.25 Z-0.78
G81 Y3.75 Z-0.78
G80
( slot )
G0 Z0.25
G0 X2.8425 Y0.5
G0 Z0.0625
G1 F6.0 Z-0.125
G1 F20.0 Y4.0
G1 X2.9075
G1 Y0.5
G1 X2.8425
G1 F6.0 Y0.375
G1 F20.0 X2.7175
G1 Y4.125
G1 X3.0325
G1 Y0.375
G1 X2.8425
G1 F6.0 Y0.25
G1 F20.0 X2.5925
G1 Y4.25
G1 X3.1575
G1 Y0.25
G1 X2.8425
G1 F6.0 Y0.125
G1 F20.0 X2.4675
G1 Y4.375
G1 X3.2825
G1 Y0.125
G1 X2.8425
( outline )
G0 Z0.25
G0 X-0.0332 Y-0.1205
G0 Z0.0625
G1 F6.0 Z-0.125
G2 F20.0 X-0.125 Y0.0 I0.0332 J0.1205
G1 Y4.5
G2 X0.0 Y4.625 I0.125 J0.0
G1 X5.75
G2 X5.875 Y4.5 I0.0 J-0.125
G1 Y0.0
G2 X5.75 Y-0.125 I-0.125 J0.0
G1 X0.0
G2 X-0.0332 Y-0.1205 I0.0 J0.125
G1 F6.0 Z-0.25
G2 F20.0 X-0.125 Y0.0 I0.0332 J0.1205
G1 Y4.5
G2 X0.0 Y4.625 I0.125 J0.0
G1 X5.75
G2 X5.875 Y4.5 I0.0 J-0.125
G1 Y0.0
G2 X5.75 Y-0.125 I-0.125 J0.0
G1 X0.0
G2 X-0.0332 Y-0.1205 I0.0 J0.125
G1 F6.0 Z-0.375
G2 F20.0 X-0.125 Y0.0 I0.0332 J0.1205
G1 Y4.5
G2 X0.0 Y4.625 I0.125 J0.0
G1 X5.75
G2 X5.875 Y4.5 I0.0 J-0.125
G1 Y0.0
G2 X5.75 Y-0.125 I-0.125 J0.0
G1 X0.0
G2 X-0.0332 Y-0.1205 I0.0 J0.125
G1 F6.0 Z-0.5
G2 F20.0 X-0.125 Y0.0 I0.0332 J0.1205
G1 Y4.5
G2 X0.0 Y4.625 I0.125 J0.0
G1 X5.75
G2 X5.875 Y4.5 I0.0 J-0.125
G1 Y0.0
G2 X5.75 Y-0.125 I-0.125 J0.0
G1 X0.0
G2 X-0.0332 Y-0.1205 I0.0 J0.125
G1 F6.0 Z-0.625
G2 F20.0 X-0.125 Y0.0 I0.0332 J0.1205
G1 Y4.5
G2 X0.0 Y4.625 I0.125 J0.0
G1 X5.75
G2 X5.875 Y4.5 I0.0 J-0.125
G1 Y0.0
G2 X5.75 Y-0.125 I-0.125 J0.0
G1 X0.0
G2 X-0.0332 Y-0.1205 I0.0 J0.125
G1 F6.0 Z-0.75
G2 F20.0 X-0.125 Y0.0 I0.0332 J0.1205
G1 Y4.5
G2 X0.0 Y4.625 I0.125 J0.0
G1 X5.75
G2 X5.875 Y4.5 I0.0 J-0.125
G1 Y0.0
G2 X5.75 Y-0.125 I-0.125 J0.0
G1 X0.0
G2 X-0.0332 Y-0.1205 I0.0 J0.125
G1 F6.0 Z-0.78
G2 F20.0 X-0.125 Y0.0 I0.0332 J0.1205
G1 Y4.5
G2 X0.0 Y4.625 I0.125 J0.0
G1 X5.75
G2 X5.875 Y4.5 I0.0 J-0.125
G1 Y0.0
G2 X5.75 Y-0.125 I-0.125 J0.0
G1 X0.0
G2 X-0.0332 Y-0.1205 I0.0 J0.125
G0 Z0.25
M30
