( Made using CamBam - http://www.cambam.info )
( hobbycnc_controller_cut 5/22/2013 10:13:45 PM )
( T0 : 0.125 )
G20 G90 G64 G40
G0 Z0.125
( T0 : 0.125 )
T0 M6
( Drill1 )
G17
G0 X0.25 Y1.0
G98
G81 X0.25 Y1.0 Z-0.07 R0.0 F5.0
G81 X1.895 Y0.5 Z-0.07
G81 X0.25 Y3.0 Z-0.07
G81 X0.5 Y4.0 Z-0.07
G81 X0.25 Y5.5 Z-0.07
G81 X1.2038 Y6.0218 Z-0.07
G81 X0.25 Y7.0 Z-0.07
G81 X1.2038 Y7.4043 Z-0.07
G81 X2.5863 Z-0.07
G81 X3.447 Y7.511 Z-0.07
G81 Z-0.07
G81 X2.5863 Y6.0218 Z-0.07
G81 X3.447 Y4.097 Z-0.07
G81 X7.945 Z-0.07
G81 Z-0.07
G81 X8.602 Y4.0 Z-0.07
G81 X8.852 Y3.0 Z-0.07
G81 Y1.0 Z-0.07
G81 Y5.5 Z-0.07
G81 Y7.0 Z-0.07
G81 X7.945 Y7.511 Z-0.07
G81 Z-0.07
G81 X8.852 Y8.5 Z-0.07
G81 X8.602 Y10.0 Z-0.07
G81 X8.852 Y11.0 Z-0.07
G81 X7.9045 Y11.2983 Z-0.07
G81 Y12.2278 Z-0.07
G81 Y13.1573 Z-0.07
G81 X8.852 Y13.0 Z-0.07
G81 X5.9175 Y13.1573 Z-0.07
G81 Y12.2278 Z-0.07
G81 Y11.2983 Z-0.07
G81 X3.9245 Z-0.07
G81 X3.1335 Z-0.07
G81 X1.9885 Z-0.07
G81 X1.1975 Z-0.07
G81 Y12.2278 Z-0.07
G81 Y13.1573 Z-0.07
G81 X0.25 Y13.0 Z-0.07
G81 Y11.0 Z-0.07
G81 X0.5 Y10.0 Z-0.07
G81 X0.25 Y8.5 Z-0.07
G81 X2.3885 Y12.2278 Z-0.07
G81 Y13.1573 Z-0.07
G80
( tool_change.nc )
T0 M6
( cutout )
G0 Z0.125
G0 X1.6429 Y1.734
G0 Z0.0625
G1 F5.0 Z-0.05
G3 F20.0 X1.7118 Y1.6826 I0.2521 J0.266
G3 X2.2615 Y2.0 I0.1833 J0.3174
G3 X1.7118 Y2.3174 I-0.3665 J0.0
G3 X1.6429 Y1.734 I0.1833 J-0.3174
G0 Z0.125
G0 X4.5425 Y3.219
G0 Z0.0625
G1 F5.0 Z-0.05
G1 F20.0 Y3.6255
G1 X6.509
G1 Y3.219
G1 X4.5425
G0 Z0.125
G0 X3.7165 Y10.8738
G0 Z0.0625
G1 F5.0 Z-0.05
G1 F20.0 Y11.2053
G1 X3.3415
G1 Y10.8738
G1 X3.7165
G0 Z0.125
G0 X2.1805 Y11.8033
G0 Z0.0625
G1 F5.0 Z-0.05
G1 F20.0 Y12.1348
G1 X1.4055
G1 Y11.8033
G1 X2.1805
G0 Z0.125
G0 X1.7805 Y11.2053
G0 Z0.0625
G1 F5.0 Z-0.05
G1 F20.0 X1.4055
G1 Y10.8738
G1 X1.7805
G1 Y11.2053
G0 Z0.125
G0 Y12.7328
G0 Z0.0625
G1 F5.0 Z-0.05
G1 F20.0 X2.1805
G1 Y13.0643
G1 X1.4055
G1 Y12.7328
G1 X1.7805
G0 Z0.125
G0 X6.063 Y12.1973
G0 Z0.0625
G1 F5.0 Z-0.05
G1 F20.0 Y12.1972
G1 Y12.1973
G0 Z0.125
G0 X6.1255 Y12.1348
G0 Z0.0625
G1 F5.0 Z-0.05
G1 F20.0 Y11.8033
G1 Y11.8032
G1 X7.6965
G1 Y11.8033
G1 Y12.1348
G1 X6.1255
G0 Z0.125
G0 Y12.7327
G0 Z0.0625
G1 F5.0 Z-0.05
G1 F20.0 X7.6965
G1 Y12.7328
G1 Y13.0642
G1 Y13.0643
G1 Y13.0642
G1 X6.1255
G1 Y12.7328
G1 Y12.7327
G0 Z0.125
G0 X6.1256 Y11.2052
G0 Z0.0625
G1 F5.0 Z-0.05
G1 F20.0 X6.1255
G1 Y10.8738
G1 Y10.8737
G1 X7.6965
G1 Y10.8738
G1 Y11.2052
G1 X6.1256
G0 Z0.125
G0 X7.759 Y11.2677
G0 Z0.0625
G1 F5.0 Z-0.05
G0 Z0.125
G0 Y10.8113
G0 Z0.0625
G1 Z-0.05
G1 F20.0 Y10.8112
G1 Y10.8113
G0 Z0.125
G0 Y11.7407
G0 Z0.0625
G1 F5.0 Z-0.05
G1 F20.0 Y11.7408
G1 Y11.7407
G0 Z0.125
G0 Y12.6702
G0 Z0.0625
G1 F5.0 Z-0.05
G1 F20.0 Y12.6703
G1 Y12.6702
G1 F5.0 Z-0.07
G1 F20.0 Y12.6703
G1 Y12.6702
G0 Z0.125
G0 X7.6965 Y12.7327
G0 Z0.0125
G1 F5.0 Z-0.07
G1 F20.0 Y12.7328
G1 Y13.0642
G1 Y13.0643
G1 Y13.0642
G1 X6.1255
G1 Y12.7328
G1 Y12.7327
G1 X7.6965
G0 Z0.125
G0 Y12.1348
G0 Z0.0125
G1 F5.0 Z-0.07
G1 F20.0 X6.1255
G1 Y11.8033
G1 Y11.8032
G1 X7.6965
G1 Y11.8033
G1 Y12.1348
G0 Z0.125
G0 X7.759 Y11.7408
G0 Z0.0125
G1 F5.0 Z-0.07
G1 F20.0 Y11.7407
G1 Y11.7408
G0 Z0.125
G0 Y11.2678
G0 Z0.0425
G1 F5.0 Z-0.07
G1 F20.0 Y11.2677
G1 Y11.2678
G0 Z0.125
G0 X7.6965 Y11.2052
G0 Z0.0125
G1 F5.0 Z-0.07
G1 F20.0 X6.1255
G1 Y10.8738
G1 Y10.8737
G1 X7.6965
G1 Y10.8738
G1 Y11.2052
G0 Z0.125
G0 X7.759 Y10.8113
G0 Z0.0125
G1 F5.0 Z-0.07
G1 F20.0 Y10.8112
G1 Y10.8113
G0 Z0.125
G0 X6.063 Y12.1973
G0 Z0.0125
G1 F5.0 Z-0.07
G1 F20.0 Y12.1972
G1 Y12.1973
G0 Z0.125
G0 X3.7165 Y11.2053
G0 Z0.0125
G1 F5.0 Z-0.07
G1 F20.0 X3.3415
G1 Y10.8738
G1 X3.7165
G1 Y11.2053
G0 Z0.125
G0 X2.1805 Y11.8033
G0 Z0.0125
G1 F5.0 Z-0.07
G1 F20.0 Y12.1348
G1 X1.4055
G1 Y11.8033
G1 X2.1805
G0 Z0.125
G0 X1.7805 Y11.2053
G0 Z0.0125
G1 F5.0 Z-0.07
G1 F20.0 X1.4055
G1 Y10.8738
G1 X1.7805
G1 Y11.2053
G0 Z0.125
G0 Y12.7328
G0 Z0.0125
G1 F5.0 Z-0.07
G1 F20.0 X2.1805
G1 Y13.0643
G1 X1.4055
G1 Y12.7328
G1 X1.7805
G0 Z0.125
G0 X4.5425 Y3.6255
G0 Z0.0125
G1 F5.0 Z-0.07
G1 F20.0 X6.509
G1 Y3.219
G1 X4.5425
G1 Y3.6255
G0 Z0.125
G0 X2.2073 Y2.1918
G0 Z0.0425
G1 F5.0 Z-0.07
G3 F20.0 X1.7118 Y2.3174 I-0.3123 J-0.1918
G3 Y1.6826 I0.1833 J-0.3174
G3 X2.2615 Y2.0 I0.1833 J0.3174
G3 X2.2073 Y2.1918 I-0.3665 J0.0
( tool_change.nc )
T0 M6
( Profile1 )
G0 Z0.125
G0 X0.2058 Y0.2058
G0 Z0.0625
G1 F5.0 Z-0.05
G1 F20.0 X-0.0442 Y0.4558
G2 X-0.0625 Y0.5 I0.0442 J0.0442
G1 Y3.5
G2 X-0.0442 Y3.5442 I0.0625 J0.0
G1 X0.4116 Y4.0
G1 X-0.0442 Y4.4558
G2 X-0.0625 Y4.5 I0.0442 J0.0442
G1 Y9.5
G2 X-0.0442 Y9.5442 I0.0625 J0.0
G1 X0.4116 Y10.0
G1 X-0.0442 Y10.4558
G2 X-0.0625 Y10.5 I0.0442 J0.0442
G1 Y13.5
G2 X-0.0442 Y13.5442 I0.0625 J0.0
G1 X0.4558 Y14.0442
G2 X0.5 Y14.0625 I0.0442 J-0.0442
G1 X8.602
G2 X8.6462 Y14.0442 I0.0 J-0.0625
G1 X9.1462 Y13.5442
G2 X9.1645 Y13.5 I-0.0442 J-0.0442
G1 Y10.5
G2 X9.1462 Y10.4558 I-0.0625 J0.0
G1 X8.6904 Y10.0
G1 X9.1462 Y9.5442
G2 X9.1645 Y9.5 I-0.0442 J-0.0442
G1 Y4.5
G2 X9.1462 Y4.4558 I-0.0625 J0.0
G1 X8.6904 Y4.0
G1 X9.1462 Y3.5442
G2 X9.1645 Y3.5 I-0.0442 J-0.0442
G1 Y0.5
G2 X9.1462 Y0.4558 I-0.0625 J0.0
G1 X8.6462 Y-0.0442
G2 X8.602 Y-0.0625 I-0.0442 J0.0442
G1 X0.5
G2 X0.4558 Y-0.0442 I0.0 J0.0625
G1 X0.2058 Y0.2058
G1 F5.0 Z-0.07
G1 F20.0 X-0.0442 Y0.4558
G2 X-0.0625 Y0.5 I0.0442 J0.0442
G1 Y3.5
G2 X-0.0442 Y3.5442 I0.0625 J0.0
G1 X0.4116 Y4.0
G1 X-0.0442 Y4.4558
G2 X-0.0625 Y4.5 I0.0442 J0.0442
G1 Y9.5
G2 X-0.0442 Y9.5442 I0.0625 J0.0
G1 X0.4116 Y10.0
G1 X-0.0442 Y10.4558
G2 X-0.0625 Y10.5 I0.0442 J0.0442
G1 Y13.5
G2 X-0.0442 Y13.5442 I0.0625 J0.0
G1 X0.4558 Y14.0442
G2 X0.5 Y14.0625 I0.0442 J-0.0442
G1 X8.602
G2 X8.6462 Y14.0442 I0.0 J-0.0625
G1 X9.1462 Y13.5442
G2 X9.1645 Y13.5 I-0.0442 J-0.0442
G1 Y10.5
G2 X9.1462 Y10.4558 I-0.0625 J0.0
G1 X8.6904 Y10.0
G1 X9.1462 Y9.5442
G2 X9.1645 Y9.5 I-0.0442 J-0.0442
G1 Y4.5
G2 X9.1462 Y4.4558 I-0.0625 J0.0
G1 X8.6904 Y4.0
G1 X9.1462 Y3.5442
G2 X9.1645 Y3.5 I-0.0442 J-0.0442
G1 Y0.5
G2 X9.1462 Y0.4558 I-0.0625 J0.0
G1 X8.6462 Y-0.0442
G2 X8.602 Y-0.0625 I-0.0442 J0.0442
G1 X0.5
G2 X0.4558 Y-0.0442 I0.0 J0.0625
G1 X0.2058 Y0.2058
G0 Z0.125
M30
