( Made using CamBam - http://www.cambam.info )
( limit_bracket 4/3/2013 10:22:28 PM )
( T0 : 0.125 )
G20 G90 G64 G40
G0 Z0.25
( T0 : 0.125 )
T0 M6
( Profile1 )
G17
G0 X0.2364 Y0.3638
G0 Z0.0625
G1 F6.0 Z-0.032
G3 F20.0 X0.2438 Y0.3593 I0.0886 J0.1362
G3 X0.4875 Y0.5 I0.0813 J0.1407
G3 X0.2438 Y0.6407 I-0.1625 J0.0
G3 X0.2364 Y0.3638 I0.0813 J-0.1407
G0 Z0.25
G0 X1.3379 Y0.2053
G0 Z0.0625
G1 F6.0 Z-0.032
G3 F20.0 X1.3563 Y0.1675 I0.0371 J-0.0053
G3 X1.4125 Y0.2 I0.0188 J0.0325
G3 X1.3563 Y0.2325 I-0.0375 J0.0
G3 X1.3379 Y0.2053 I0.0188 J-0.0325
G0 Z0.25
G0 X1.3727 Y0.7626
G0 Z0.0625
G1 F6.0 Z-0.032
G3 F20.0 X1.4125 Y0.8 I0.0023 J0.0374
G3 X1.3563 Y0.8325 I-0.0375 J0.0
G3 Y0.7675 I0.0188 J-0.0325
G3 X1.3727 Y0.7626 I0.0188 J0.0325
G1 F6.0 Z-0.065
G3 F20.0 X1.4125 Y0.8 I0.0023 J0.0374
G3 X1.3563 Y0.8325 I-0.0375 J0.0
G3 Y0.7675 I0.0188 J-0.0325
G3 X1.3727 Y0.7626 I0.0188 J0.0325
G0 Z0.25
G0 X1.3748 Y0.2375
G0 Z0.0295
G1 F6.0 Z-0.065
G3 F20.0 X1.3563 Y0.2325 I0.0002 J-0.0375
G3 Y0.1675 I0.0188 J-0.0325
G3 X1.4125 Y0.2 I0.0188 J0.0325
G3 X1.3748 Y0.2375 I-0.0375 J0.0
G0 Z0.25
G0 X0.4826 Y0.4606
G0 Z0.0295
G1 F6.0 Z-0.065
G3 F20.0 X0.4875 Y0.5 I-0.1576 J0.0394
G3 X0.2438 Y0.6407 I-0.1625 J0.0
G3 Y0.3593 I0.0813 J-0.1407
G3 X0.4826 Y0.4606 I0.0813 J0.1407
( outline )
G0 Z0.25
G0 X-0.0259 Y-0.0259
G0 Z0.0625
G1 F6.0 Z-0.032
G3 F20.0 X0.0625 Y-0.0625 I0.0884 J0.0884
G1 X1.6875
G3 X1.8125 Y0.0625 I0.0 J0.125
G1 Y0.9375
G3 X1.6875 Y1.0625 I-0.125 J0.0
G1 X0.0625
G3 X-0.0625 Y0.9375 I0.0 J-0.125
G1 Y0.0625
G3 X-0.0259 Y-0.0259 I0.125 J0.0
G1 F6.0 Z-0.065
G3 F20.0 X0.0625 Y-0.0625 I0.0884 J0.0884
G1 X1.6875
G3 X1.8125 Y0.0625 I0.0 J0.125
G1 Y0.9375
G3 X1.6875 Y1.0625 I-0.125 J0.0
G1 X0.0625
G3 X-0.0625 Y0.9375 I0.0 J-0.125
G1 Y0.0625
G3 X-0.0259 Y-0.0259 I0.125 J0.0
G0 Z0.25
M30
