 (Filename: rail_support_c.tap)
 (Post processor: EMC.scpost)
 (Date: 18/02/13)
 G20 (Units: Inches)
 G40 G90
 F1
 (Part: rail_suppport_b)
 (Operation: Drill, Holes, T2: Drill, 0.25 in diameter, 0.75 in Deep)
 M6 T2  (Drill, 0.25 in diameter)
 G43 H2
 M03 S1000
 G00 X0.7386 Y3.2500
 Z0.0197
 G01 Z-0.1250 F4
 G00 Z-0.0856
 Z-0.1053
 G01 Z-0.2500
 G00 Z-0.2106
 Z-0.2303
 G01 Z-0.3750
 G00 Z-0.3356
 Z-0.3553
 G01 Z-0.5000
 G00 Z-0.4606
 Z-0.4803
 G01 Z-0.6250
 G00 Z-0.5856
 Z-0.6053
 G01 Z-0.7500
 G00 Z1.0000
 Y5.2500
 Z0.0197
 G01 Z-0.1250
 G00 Z-0.0856
 Z-0.1053
 G01 Z-0.2500
 G00 Z-0.2106
 Z-0.2303
 G01 Z-0.3750
 G00 Z-0.3356
 Z-0.3553
 G01 Z-0.5000
 G00 Z-0.4606
 Z-0.4803
 G01 Z-0.6250
 G00 Z-0.5856
 Z-0.6053
 G01 Z-0.7500
 G00 Z1.0000
 X2.7614
 Z0.0197
 G01 Z-0.1250
 G00 Z-0.0856
 Z-0.1053
 G01 Z-0.2500
 G00 Z-0.2106
 Z-0.2303
 G01 Z-0.3750
 G00 Z-0.3356
 Z-0.3553
 G01 Z-0.5000
 G00 Z-0.4606
 Z-0.4803
 G01 Z-0.6250
 G00 Z-0.5856
 Z-0.6053
 G01 Z-0.7500
 G00 Z1.0000
 Y3.2500
 Z0.0197
 G01 Z-0.1250
 G00 Z-0.0856
 Z-0.1053
 G01 Z-0.2500
 G00 Z-0.2106
 Z-0.2303
 G01 Z-0.3750
 G00 Z-0.3356
 Z-0.3553
 G01 Z-0.5000
 G00 Z-0.4606
 Z-0.4803
 G01 Z-0.6250
 G00 Z-0.5856
 Z-0.6053
 G01 Z-0.7500
 G00 Z1.0000
 Y1.2500
 Z0.0197
 G01 Z-0.1250
 G00 Z-0.0856
 Z-0.1053
 G01 Z-0.2500
 G00 Z-0.2106
 Z-0.2303
 G01 Z-0.3750
 G00 Z-0.3356
 Z-0.3553
 G01 Z-0.5000
 G00 Z-0.4606
 Z-0.4803
 G01 Z-0.6250
 G00 Z-0.5856
 Z-0.6053
 G01 Z-0.7500
 G00 Z1.0000
 X0.7386
 Z0.0197
 G01 Z-0.1250
 G00 Z-0.0856
 Z-0.1053
 G01 Z-0.2500
 G00 Z-0.2106
 Z-0.2303
 G01 Z-0.3750
 G00 Z-0.3356
 Z-0.3553
 G01 Z-0.5000
 G00 Z-0.4606
 Z-0.4803
 G01 Z-0.6250
 G00 Z-0.5856
 Z-0.6053
 G01 Z-0.7500
 G00 Z1.0000
 (Operation: Spiral pocket, trench, T3: Mill/router, 0.25 in diameter, 0.75 in Deep)
 M05
 M6 T3  (Mill/router, 0.25 in diameter)
 G43 H3
 M03 S1000
 G00 X1.6522 Y0.6750
 Z0.0197
 G01 Z-0.1250 F6
 Y5.8250 F20
 X1.6156 Y5.8616
 X1.6522 Y5.8250
 X1.8478
 X1.8844 Y5.8616
 X1.8478 Y5.8250
 Y0.6750
 X1.8844 Y0.6384
 X1.8478 Y0.6750
 X1.6522
 X1.5522 Y0.5750
 Y5.9250
 X1.5156 Y5.9616
 X1.5522 Y5.9250
 X1.9478
 X1.9844 Y5.9616
 X1.9478 Y5.9250
 Y0.5750
 X1.9844 Y0.5384
 X1.9478 Y0.5750
 X1.5522
 X1.4522 Y0.4750
 Y6.0250
 X1.4156 Y6.0616
 X1.4522 Y6.0250
 X2.0478
 X2.0844 Y6.0616
 X2.0478 Y6.0250
 Y0.4750
 X2.0844 Y0.4384
 X2.0478 Y0.4750
 X1.4522
 G00 Z1.0000
 X1.3522 Y0.3750
 Z0.0197
 G01 Z-0.1250 F6
 Y6.1250 F20
 X1.3156 Y6.1616
 X1.3522 Y6.1250
 X2.1477
 X2.1844 Y6.1616
 X2.1477 Y6.1250
 Y0.3750
 X2.1844 Y0.3384
 X2.1477 Y0.3750
 X1.3522
 X1.3156 Y0.3384
 X1.3522 Y0.3750
 G00 Z1.0000
 X1.6522 Y0.6750
 Z-0.1053
 G01 Z-0.2500 F6
 Y5.8250 F20
 X1.6156 Y5.8616
 X1.6522 Y5.8250
 X1.8478
 X1.8844 Y5.8616
 X1.8478 Y5.8250
 Y0.6750
 X1.8844 Y0.6384
 X1.8478 Y0.6750
 X1.6522
 X1.5522 Y0.5750
 Y5.9250
 X1.5156 Y5.9616
 X1.5522 Y5.9250
 X1.9478
 X1.9844 Y5.9616
 X1.9478 Y5.9250
 Y0.5750
 X1.9844 Y0.5384
 X1.9478 Y0.5750
 X1.5522
 X1.4522 Y0.4750
 Y6.0250
 X1.4156 Y6.0616
 X1.4522 Y6.0250
 X2.0478
 X2.0844 Y6.0616
 X2.0478 Y6.0250
 Y0.4750
 X2.0844 Y0.4384
 X2.0478 Y0.4750
 X1.4522
 G00 Z1.0000
 X1.3522 Y0.3750
 Z-0.1053
 G01 Z-0.2500 F6
 Y6.1250 F20
 X1.3156 Y6.1616
 X1.3522 Y6.1250
 X2.1477
 X2.1844 Y6.1616
 X2.1477 Y6.1250
 Y0.3750
 X2.1844 Y0.3384
 X2.1477 Y0.3750
 X1.3522
 X1.3156 Y0.3384
 X1.3522 Y0.3750
 G00 Z1.0000
 X1.6522 Y0.6750
 Z-0.2303
 G01 Z-0.3750 F6
 Y5.8250 F20
 X1.6156 Y5.8616
 X1.6522 Y5.8250
 X1.8478
 X1.8844 Y5.8616
 X1.8478 Y5.8250
 Y0.6750
 X1.8844 Y0.6384
 X1.8478 Y0.6750
 X1.6522
 X1.5522 Y0.5750
 Y5.9250
 X1.5156 Y5.9616
 X1.5522 Y5.9250
 X1.9478
 X1.9844 Y5.9616
 X1.9478 Y5.9250
 Y0.5750
 X1.9844 Y0.5384
 X1.9478 Y0.5750
 X1.5522
 X1.4522 Y0.4750
 Y6.0250
 X1.4156 Y6.0616
 X1.4522 Y6.0250
 X2.0478
 X2.0844 Y6.0616
 X2.0478 Y6.0250
 Y0.4750
 (Evaluation limit reached)
 M05 M30
