( Made using CamBam - http://www.cambam.info )
( rail_suppport_b 2/19/2013 12:37:09 AM )
( T0 : 0.25 )
G20 G90 G64 G40
G0 Z0.0
( T0 : 0.25 )
T0 M6
( trench )
G17
G0 X1.4523 Y-0.475
G1 F6.0 Z-0.125
G1 F20.0 X1.5478
G1 Y-5.525
G1 X1.4523
G1 Y-0.475
G0 Z0.0
G0 X1.1023
G1 F6.0 Z-0.125
G1 F20.0 Y-0.125
G1 X1.8978
G1 Y-5.875
G1 X1.1023
G1 Y-0.475
G0 Z0.0
M30
