 (Filename: rail_support.tap)
 (Post processor: EMC.scpost)
 (Date: 17/02/13)
 G20 (Units: Inches)
 G40 G90
 F1
 (Part: rail_suppport_b Duplicate 1)
 (Operation: Drill, Holes, T3: Drill, 0.25 in diameter, 0.75 in Deep)
 M6 T3  (Drill, 0.25 in diameter)
 G43 H3
 G00 Z1.0000
 M03 S1000
 X1.1323 Y3.8406
 Z0.0197
 G01 Z-0.2500 F6
 G00 Z-0.2106
 Z-0.2303
 G01 Z-0.5000
 G00 Z-0.4606
 Z-0.4803
 G01 Z-0.7500
 G00 Z1.0000
 Y5.8406
 Z0.0197
 G01 Z-0.2500
 G00 Z-0.2106
 Z-0.2303
 G01 Z-0.5000
 G00 Z-0.4606
 Z-0.4803
 G01 Z-0.7500
 G00 Z1.0000
 X3.1551
 Z0.0197
 G01 Z-0.2500
 G00 Z-0.2106
 Z-0.2303
 G01 Z-0.5000
 G00 Z-0.4606
 Z-0.4803
 G01 Z-0.7500
 G00 Z1.0000
 Y3.8406
 Z0.0197
 G01 Z-0.2500
 G00 Z-0.2106
 Z-0.2303
 G01 Z-0.5000
 G00 Z-0.4606
 Z-0.4803
 G01 Z-0.7500
 G00 Z1.0000
 Y1.8406
 Z0.0197
 G01 Z-0.2500
 G00 Z-0.2106
 Z-0.2303
 G01 Z-0.5000
 G00 Z-0.4606
 Z-0.4803
 G01 Z-0.7500
 G00 Z1.0000
 X1.1323
 Z0.0197
 G01 Z-0.2500
 G00 Z-0.2106
 Z-0.2303
 G01 Z-0.5000
 G00 Z-0.4606
 Z-0.4803
 G01 Z-0.7500
 G00 Z1.0000
 (Part: rail_suppport_b Duplicate 2)
 (Operation: Drill, Holes, T3: Drill, 0.25 in diameter, 0.75 in Deep)
 X5.0693 Y3.8406
 Z0.0197
 G01 Z-0.2500
 G00 Z-0.2106
 Z-0.2303
 G01 Z-0.5000
 G00 Z-0.4606
 Z-0.4803
 G01 Z-0.7500
 G00 Z1.0000
 Y5.8406
 Z0.0197
 G01 Z-0.2500
 G00 Z-0.2106
 Z-0.2303
 G01 Z-0.5000
 G00 Z-0.4606
 Z-0.4803
 G01 Z-0.7500
 G00 Z1.0000
 X7.0921
 Z0.0197
 G01 Z-0.2500
 G00 Z-0.2106
 Z-0.2303
 G01 Z-0.5000
 G00 Z-0.4606
 Z-0.4803
 G01 Z-0.7500
 G00 Z1.0000
 Y3.8406
 Z0.0197
 G01 Z-0.2500
 G00 Z-0.2106
 Z-0.2303
 G01 Z-0.5000
 G00 Z-0.4606
 Z-0.4803
 G01 Z-0.7500
 G00 Z1.0000
 Y1.8406
 Z0.0197
 G01 Z-0.2500
 G00 Z-0.2106
 Z-0.2303
 G01 Z-0.5000
 G00 Z-0.4606
 Z-0.4803
 G01 Z-0.7500
 G00 Z1.0000
 X5.0693
 Z0.0197
 G01 Z-0.2500
 G00 Z-0.2106
 Z-0.2303
 G01 Z-0.5000
 G00 Z-0.4606
 Z-0.4803
 G01 Z-0.7500
 G00 Z1.0000
 (Part: rail_suppport_b Duplicate 3)
 (Operation: Drill, Holes, T3: Drill, 0.25 in diameter, 0.75 in Deep)
 X9.0063 Y3.8406
 Z0.0197
 G01 Z-0.2500
 G00 Z-0.2106
 Z-0.2303
 G01 Z-0.5000
 G00 Z-0.4606
 Z-0.4803
 G01 Z-0.7500
 G00 Z1.0000
 Y5.8406
 Z0.0197
 G01 Z-0.2500
 G00 Z-0.2106
 Z-0.2303
 G01 Z-0.5000
 G00 Z-0.4606
 Z-0.4803
 G01 Z-0.7500
 G00 Z1.0000
 X11.0291
 Z0.0197
 G01 Z-0.2500
 G00 Z-0.2106
 Z-0.2303
 G01 Z-0.5000
 G00 Z-0.4606
 Z-0.4803
 G01 Z-0.7500
 G00 Z1.0000
 Y3.8406
 Z0.0197
 G01 Z-0.2500
 G00 Z-0.2106
 Z-0.2303
 G01 Z-0.5000
 G00 Z-0.4606
 Z-0.4803
 G01 Z-0.7500
 G00 Z1.0000
 Y1.8406
 Z0.0197
 G01 Z-0.2500
 G00 Z-0.2106
 Z-0.2303
 G01 Z-0.5000
 G00 Z-0.4606
 Z-0.4803
 G01 Z-0.7500
 G00 Z1.0000
 X9.0063
 Z0.0197
 G01 Z-0.2500
 G00 Z-0.2106
 Z-0.2303
 G01 Z-0.5000
 G00 Z-0.4606
 Z-0.4803
 G01 Z-0.7500
 G00 Z1.0000
 (Part: rail_suppport_b)
 (Operation: Drill, Holes, T3: Drill, 0.25 in diameter, 0.75 in Deep)
 X3.9154 Y10.3637
 Z0.0197
 G01 Z-0.2500
 G00 Z-0.2106
 Z-0.2303
 G01 Z-0.5000
 G00 Z-0.4606
 Z-0.4803
 G01 Z-0.7500
 G00 Z1.0000
 X5.9154
 Z0.0197
 G01 Z-0.2500
 G00 Z-0.2106
 Z-0.2303
 G01 Z-0.5000
 G00 Z-0.4606
 Z-0.4803
 G01 Z-0.7500
 G00 Z1.0000
 Y8.3410
 Z0.0197
 G01 Z-0.2500
 G00 Z-0.2106
 Z-0.2303
 G01 Z-0.5000
 G00 Z-0.4606
 Z-0.4803
 G01 Z-0.7500
 G00 Z1.0000
 X3.9154
 Z0.0197
 G01 Z-0.2500
 G00 Z-0.2106
 Z-0.2303
 G01 Z-0.5000
 G00 Z-0.4606
 Z-0.4803
 G01 Z-0.7500
 G00 Z1.0000
 X1.9154
 Z0.0197
 G01 Z-0.2500
 G00 Z-0.2106
 Z-0.2303
 G01 Z-0.5000
 G00 Z-0.4606
 Z-0.4803
 G01 Z-0.7500
 G00 Z1.0000
 Y10.3637
 Z0.0197
 G01 Z-0.2500
 G00 Z-0.2106
 Z-0.2303
 G01 Z-0.5000
 G00 Z-0.4606
 Z-0.4803
 G01 Z-0.7500
 G00 Z1.0000
 (Operation: Face, T2: Mill/router, 0.25 in diameter, 0.125 in Deep)
 M05
 M6 T2  (Mill/router, 0.25 in diameter)
 G43 H2
 M03 S1000
 G00 X7.0654 Y9.7626 Z1.0000
 Z0.0197
 G01 Z-0.1250 F6
 X0.7654 F20
 G00 Z1.0000
 X7.0654 Y9.5251
 Z0.0197
 G01 Z-0.1250 F6
 X0.7654 F20
 G00 Z1.0000
 X7.0654 Y9.2876
 Z0.0197
 G01 Z-0.1250 F6
 X0.7654 F20
 G00 Z1.0000
 X7.0654 Y9.0501
 Z0.0197
 G01 Z-0.1250 F6
 X0.7654 F20
 G00 Z1.0000
 X7.0654 Y8.8126
 Z0.0197
 G01 Z-0.1250 F6
 X0.7654 F20
 (Part: rail_suppport_b Duplicate 1)
 (Operation: Face, T2: Mill/router, 0.25 in diameter, 0.125 in Deep)
 G00 Z1.0000
 X1.7335 Y6.9906
 Z0.0197
 G01 Z-0.1250 F6
 Y0.6906 F20
 G00 Z1.0000
 X1.9710 Y6.9906
 Z0.0197
 G01 Z-0.1250 F6
 Y0.6906 F20
 G00 Z1.0000
 X2.2085 Y6.9906
 Z0.0197
 G01 Z-0.1250 F6
 Y0.6906 F20
 G00 Z1.0000
 X2.4460 Y6.9906
 Z0.0197
 G01 Z-0.1250 F6
 Y0.6906 F20
 G00 Z1.0000
 X2.6835 Y6.9906
 Z0.0197
 G01 Z-0.1250 F6
 Y0.6906 F20
 (Part: rail_suppport_b Duplicate 2)
 (Operation: Face, T2: Mill/router, 0.25 in diameter, 0.125 in Deep)
 G00 Z1.0000
 X5.6705 Y6.9906
 Z0.0197
 G01 Z-0.1250 F6
 Y0.6906 F20
 G00 Z1.0000
 X5.9080 Y6.9906
 Z0.0197
 G01 Z-0.1250 F6
 Y0.6906 F20
 G00 Z1.0000
 X6.1455 Y6.9906
 Z0.0197
 G01 Z-0.1250 F6
 Y0.6906 F20
 G00 Z1.0000
 X6.3830 Y6.9906
 Z0.0197
 G01 Z-0.1250 F6
 Y0.6906 F20
 G00 Z1.0000
 X6.6205 Y6.9906
 Z0.0197
 G01 Z-0.1250 F6
 Y0.6906 F20
 (Part: rail_suppport_b Duplicate 3)
 (Operation: Face, T2: Mill/router, 0.25 in diameter, 0.125 in Deep)
 G00 Z1.0000
 X9.6075 Y6.9906
 Z0.0197
 G01 Z-0.1250 F6
 Y0.6906 F20
 G00 Z1.0000
 X9.8450 Y6.9906
 Z0.0197
 G01 Z-0.1250 F6
 Y0.6906 F20
 G00 Z1.0000
 X10.0825 Y6.9906
 Z0.0197
 G01 Z-0.1250 F6
 Y0.6906 F20
 G00 Z1.0000
 X10.3200 Y6.9906
 Z0.0197
 G01 Z-0.1250 F6
 Y0.6906 F20
 G00 Z1.0000
 X10.5575 Y6.9906
 Z0.0197
 G01 Z-0.1250 F6
 Y0.6906 F20
 (Operation: Outside Offset, outline, T1: Mill/router, 0.125 in diameter, 0.75 in Deep)
 G00 Z1.0000
 M05
 M6 T1  (Mill/router, 0.125 in diameter)
 G43 H1
 M03 S1000
 G00 X11.5802 Y6.8406 Z1.0000
 Z0.0197
 G01 Z-0.2500 F3.937
 G03 X11.5177 Y6.9031 I-0.0625 J0.0000 F20.0
 G01 X8.5177 F20
 G03 X8.4552 Y6.8406 I0.0000 J-0.0625 F20.0
 G01 Y0.8406 F20
 G03 X8.5177 Y0.7781 I0.0625 J0.0000 F20.0
 G01 X11.5177 F20
 G03 X11.5802 Y0.8406 I0.0000 J0.0625 F20.0
 G01 Y6.8406 F20
 Z-0.5000 F3.937
 G03 X11.5177 Y6.9031 I-0.0625 J0.0000 F20.0
 G01 X8.5177 F20
 G03 X8.4552 Y6.8406 I0.0000 J-0.0625 F20.0
 G01 Y0.8406 F20
 G03 X8.5177 Y0.7781 I0.0625 J0.0000 F20.0
 G01 X11.5177 F20
 G03 X11.5802 Y0.8406 I0.0000 J0.0625 F20.0
 G01 Y6.8406 F20
 Z-0.7500 F3.937
 G03 X11.5177 Y6.9031 I-0.0625 J0.0000 F20.0
 G01 X8.5177 F20
 G03 X8.4552 Y6.8406 I0.0000 J-0.0625 F20.0
 G01 Y0.8406 F20
 G03 X8.5177 Y0.7781 I0.0625 J0.0000 F20.0
 G01 X11.5177 F20
 G03 X11.5802 Y0.8406 I0.0000 J0.0625 F20.0
 G01 Y6.8406 F20
 (Part: rail_suppport_b Duplicate 2)
 (Operation: Outside Offset, outline, T1: Mill/router, 0.125 in diameter, 0.75 in Deep)
 G00 Z1.0000
 X7.6432
 Z0.0197
 G01 Z-0.2500 F3.937
 G03 X7.5807 Y6.9031 I-0.0625 J0.0000 F20.0
 G01 X4.5807 F20
 G03 X4.5182 Y6.8406 I0.0000 J-0.0625 F20.0
 G01 Y0.8406 F20
 G03 X4.5807 Y0.7781 I0.0625 J0.0000 F20.0
 G01 X7.5807 F20
 G03 X7.6432 Y0.8406 I0.0000 J0.0625 F20.0
 G01 Y6.8406 F20
 Z-0.5000 F3.937
 G03 X7.5807 Y6.9031 I-0.0625 J0.0000 F20.0
 G01 X4.5807 F20
 G03 X4.5182 Y6.8406 I0.0000 J-0.0625 F20.0
 G01 Y0.8406 F20
 G03 X4.5807 Y0.7781 I0.0625 J0.0000 F20.0
 G01 X7.5807 F20
 G03 X7.6432 Y0.8406 I0.0000 J0.0625 F20.0
 G01 Y6.8406 F20
 Z-0.7500 F3.937
 G03 X7.5807 Y6.9031 I-0.0625 J0.0000 F20.0
 G01 X4.5807 F20
 G03 X4.5182 Y6.8406 I0.0000 J-0.0625 F20.0
 G01 Y0.8406 F20
 G03 X4.5807 Y0.7781 I0.0625 J0.0000 F20.0
 G01 X7.5807 F20
 G03 X7.6432 Y0.8406 I0.0000 J0.0625 F20.0
 G01 Y6.8406 F20
 (Part: rail_suppport_b Duplicate 1)
 (Operation: Outside Offset, outline, T1: Mill/router, 0.125 in diameter, 0.75 in Deep)
 G00 Z1.0000
 X3.7062
 Z0.0197
 G01 Z-0.2500 F3.937
 G03 X3.6437 Y6.9031 I-0.0625 J0.0000 F20.0
 G01 X0.6437 F20
 G03 X0.5812 Y6.8406 I0.0000 J-0.0625 F20.0
 G01 Y0.8406 F20
 G03 X0.6437 Y0.7781 I0.0625 J0.0000 F20.0
 G01 X3.6437 F20
 G03 X3.7062 Y0.8406 I0.0000 J0.0625 F20.0
 G01 Y6.8406 F20
 Z-0.5000 F3.937
 G03 X3.6437 Y6.9031 I-0.0625 J0.0000 F20.0
 G01 X0.6437 F20
 G03 X0.5812 Y6.8406 I0.0000 J-0.0625 F20.0
 G01 Y0.8406 F20
 G03 X0.6437 Y0.7781 I0.0625 J0.0000 F20.0
 G01 X3.6437 F20
 G03 X3.7062 Y0.8406 I0.0000 J0.0625 F20.0
 G01 Y6.8406 F20
 Z-0.7500 F3.937
 G03 X3.6437 Y6.9031 I-0.0625 J0.0000 F20.0
 G01 X0.6437 F20
 G03 X0.5812 Y6.8406 I0.0000 J-0.0625 F20.0
 G01 Y0.8406 F20
 G03 X0.6437 Y0.7781 I0.0625 J0.0000 F20.0
 G01 X3.6437 F20
 G03 X3.7062 Y0.8406 I0.0000 J0.0625 F20.0
 G01 Y6.8406 F20
 (Part: rail_suppport_b)
 (Operation: Outside Offset, outline, T1: Mill/router, 0.125 in diameter, 0.75 in Deep)
 G00 Z1.0000
 X6.9154 Y7.7899
 Z0.0197
 G01 Z-0.2500 F3.937
 G03 X6.9779 Y7.8524 I0.0000 J0.0625 F20.0
 G01 Y10.8524 F20
 G03 X6.9154 Y10.9149 I-0.0625 J0.0000 F20.0
 G01 X0.9154 F20
 G03 X0.8529 Y10.8524 I0.0000 J-0.0625 F20.0
 G01 Y7.8524 F20
 G03 X0.9154 Y7.7899 I0.0625 J0.0000 F20.0
 G01 X6.9154 F20
 Z-0.5000 F3.937
 G03 X6.9779 Y7.8524 I0.0000 J0.0625 F20.0
 G01 Y10.8524 F20
 G03 X6.9154 Y10.9149 I-0.0625 J0.0000 F20.0
 G01 X0.9154 F20
 G03 X0.8529 Y10.8524 I0.0000 J-0.0625 F20.0
 G01 Y7.8524 F20
 G03 X0.9154 Y7.7899 I0.0625 J0.0000 F20.0
 G01 X6.9154 F20
 Z-0.7500 F3.937
 G03 X6.9779 Y7.8524 I0.0000 J0.0625 F20.0
 G01 Y10.8524 F20
 G03 X6.9154 Y10.9149 I-0.0625 J0.0000 F20.0
 G01 X0.9154 F20
 G03 X0.8529 Y10.8524 I0.0000 J-0.0625 F20.0
 G01 Y7.8524 F20
 G03 X0.9154 Y7.7899 I0.0625 J0.0000 F20.0
 G01 X6.9154 F20
 G00 Z1.0000
 X0.0000 Y0.0000
 Z0.0000
 M05
 M05 M30
