( Made using CamBam - http://www.cambam.info )
( rod_clamp_v4 4/3/2013 10:35:16 PM )
( T0 : 0.125 )
G20 G90 G64 G40
G0 Z0.25
( T0 : 0.125 )
T0 M6
( Holes )
G17
G0 X0.3442 Y0.6893
G0 Z0.0625
G1 F6.0 Z-0.125
G3 F20.0 X0.4346 Y0.7452 I0.0279 J0.0559
G3 X0.3408 Y0.7993 I-0.0625 J0.0
G3 Y0.6911 I0.0312 J-0.0541
G3 X0.3442 Y0.6893 I0.0312 J0.0541
G0 Z0.25
G0 X1.3013 Y0.7418
G0 Z0.0625
G1 F6.0 Z-0.125
G3 F20.0 X1.3325 Y0.6911 I0.0624 J0.0034
G3 X1.4262 Y0.7452 I0.0313 J0.0541
G3 X1.3325 Y0.7993 I-0.0625 J0.0
G3 X1.3013 Y0.7418 I0.0313 J-0.0541
G1 F6.0 Z-0.25
G3 F20.0 X1.3325 Y0.6911 I0.0624 J0.0034
G3 X1.4262 Y0.7452 I0.0313 J0.0541
G3 X1.3325 Y0.7993 I-0.0625 J0.0
G3 X1.3013 Y0.7418 I0.0313 J-0.0541
G0 Z0.25
G0 X0.4346 Y0.745
G0 Z-0.0625
G1 F6.0 Z-0.25
G1 F20.0 Y0.7452
G3 X0.3408 Y0.7993 I-0.0625 J0.0
G3 Y0.6911 I0.0312 J-0.0541
G3 X0.4346 Y0.745 I0.0313 J0.0541
G1 F6.0 Z-0.375
G1 F20.0 Y0.7452
G3 X0.3408 Y0.7993 I-0.0625 J0.0
G3 Y0.6911 I0.0312 J-0.0541
G3 X0.4346 Y0.745 I0.0313 J0.0541
G0 Z0.25
G0 X1.3012 Y0.7452
G0 Z-0.1875
G1 F6.0 Z-0.375
G3 F20.0 X1.3325 Y0.6911 I0.0625 J0.0
G3 X1.4262 Y0.7452 I0.0313 J0.0541
G3 X1.3325 Y0.7993 I-0.0625 J0.0
G3 X1.3012 Y0.7452 I0.0313 J-0.0541
G1 F6.0 Z-0.5
G3 F20.0 X1.3325 Y0.6911 I0.0625 J0.0
G3 X1.4262 Y0.7452 I0.0313 J0.0541
G3 X1.3325 Y0.7993 I-0.0625 J0.0
G3 X1.3012 Y0.7452 I0.0313 J-0.0541
G0 Z0.25
G0 X0.4346
G0 Z-0.3125
G1 F6.0 Z-0.5
G3 F20.0 X0.3408 Y0.7993 I-0.0625 J0.0
G3 Y0.6911 I0.0312 J-0.0541
G3 X0.4346 Y0.7452 I0.0313 J0.0541
( outline )
G0 Z0.25
G0 X0.8679 Y0.5185
G0 Z0.0625
G1 F6.0 Z-0.125
G2 F20.0 X0.9138 Y0.5788 I0.0625 J0.0
G3 X0.822 I-0.0459 J0.1663
G2 X0.8679 Y0.5185 I-0.0166 J-0.0602
G1 Y0.0006
G2 X0.8054 Y-0.0619 I-0.0625 J0.0
G1 X0.6804
G2 X0.6179 Y0.0006 I0.0 J0.0625
G1 Y0.2289
G1 X0.2623 Y0.3209
G2 Y1.1695 I0.1098 J0.4243
G1 X0.727 Y1.2898
G2 X1.0088 I0.1409 J-0.5446
G1 X1.4735 Y1.1695
G2 X1.4671 Y0.3193 I-0.1098 J-0.4243
G2 X1.4524 Y0.3175 I-0.0147 J0.0607
G1 X1.1179
G1 Y0.2772
G1 Y0.0
G2 X1.0554 Y-0.0625 I-0.0625 J0.0
G1 X0.9304
G2 X0.8679 Y0.0 I0.0 J0.0625
G1 Y0.0006
G0 Z0.25
G0 Y0.5185
G0 Z-0.0625
G1 F6.0 Z-0.25
G2 F20.0 X0.9138 Y0.5788 I0.0625 J0.0
G3 X0.822 I-0.0459 J0.1663
G2 X0.8679 Y0.5185 I-0.0166 J-0.0602
G1 Y0.0006
G2 X0.8054 Y-0.0619 I-0.0625 J0.0
G1 X0.6804
G2 X0.6179 Y0.0006 I0.0 J0.0625
G1 Y0.2289
G1 X0.2623 Y0.3209
G2 Y1.1695 I0.1098 J0.4243
G1 X0.727 Y1.2898
G2 X1.0088 I0.1409 J-0.5446
G1 X1.4735 Y1.1695
G2 X1.4671 Y0.3193 I-0.1098 J-0.4243
G2 X1.4524 Y0.3175 I-0.0147 J0.0607
G1 X1.1179
G1 Y0.2772
G1 Y0.0
G2 X1.0554 Y-0.0625 I-0.0625 J0.0
G1 X0.9304
G2 X0.8679 Y0.0 I0.0 J0.0625
G1 Y0.0006
G0 Z0.25
G0 Y0.5185
G0 Z-0.1875
G1 F6.0 Z-0.375
G2 F20.0 X0.9138 Y0.5788 I0.0625 J0.0
G3 X0.822 I-0.0459 J0.1663
G2 X0.8679 Y0.5185 I-0.0166 J-0.0602
G1 Y0.0006
G2 X0.8054 Y-0.0619 I-0.0625 J0.0
G1 X0.6804
G2 X0.6179 Y0.0006 I0.0 J0.0625
G1 Y0.2289
G1 X0.2623 Y0.3209
G2 Y1.1695 I0.1098 J0.4243
G1 X0.727 Y1.2898
G2 X1.0088 I0.1409 J-0.5446
G1 X1.4735 Y1.1695
G2 X1.4671 Y0.3193 I-0.1098 J-0.4243
G2 X1.4524 Y0.3175 I-0.0147 J0.0607
G1 X1.1179
G1 Y0.2772
G1 Y0.0
G2 X1.0554 Y-0.0625 I-0.0625 J0.0
G1 X0.9304
G2 X0.8679 Y0.0 I0.0 J0.0625
G1 Y0.0006
G0 Z0.25
G0 Y0.5185
G0 Z-0.3125
G1 F6.0 Z-0.5
G2 F20.0 X0.9138 Y0.5788 I0.0625 J0.0
G3 X0.822 I-0.0459 J0.1663
G2 X0.8679 Y0.5185 I-0.0166 J-0.0602
G1 Y0.0006
G2 X0.8054 Y-0.0619 I-0.0625 J0.0
G1 X0.6804
G2 X0.6179 Y0.0006 I0.0 J0.0625
G1 Y0.2289
G1 X0.2623 Y0.3209
G2 Y1.1695 I0.1098 J0.4243
G1 X0.727 Y1.2898
G2 X1.0088 I0.1409 J-0.5446
G1 X1.4735 Y1.1695
G2 X1.4671 Y0.3193 I-0.1098 J-0.4243
G2 X1.4524 Y0.3175 I-0.0147 J0.0607
G1 X1.1179
G1 Y0.2772
G1 Y0.0
G2 X1.0554 Y-0.0625 I-0.0625 J0.0
G1 X0.9304
G2 X0.8679 Y0.0 I0.0 J0.0625
G1 Y0.0006
G0 Z0.25
M30
