 (Filename: rsC.tap)
 (Post processor: EMC.scpost)
 (Date: 18/02/13)
 G20 (Units: Inches)
 G40 G90
 F1
 (Part: rail_suppport_b Duplicate 1)
 (Operation: Drill, Holes, T2: Drill, 0.25 in diameter, 0.75 in Deep)
 M6 T2  (Drill, 0.25 in diameter)
 G43 H2
 M03 S1000
 G00 X0.7386 Y3.2500
 Z0.0197
 G01 Z-0.1250 F4
 G00 Z-0.0856
 Z-0.1053
 G01 Z-0.2500
 G00 Z-0.2106
 Z-0.2303
 G01 Z-0.3750
 G00 Z-0.3356
 Z-0.3553
 G01 Z-0.5000
 G00 Z-0.4606
 Z-0.4803
 G01 Z-0.6250
 G00 Z-0.5856
 Z-0.6053
 G01 Z-0.7500
 G00 Z1.0000
 Y5.2500
 Z0.0197
 G01 Z-0.1250
 G00 Z-0.0856
 Z-0.1053
 G01 Z-0.2500
 G00 Z-0.2106
 Z-0.2303
 G01 Z-0.3750
 G00 Z-0.3356
 Z-0.3553
 G01 Z-0.5000
 G00 Z-0.4606
 Z-0.4803
 G01 Z-0.6250
 G00 Z-0.5856
 Z-0.6053
 G01 Z-0.7500
 G00 Z1.0000
 X2.7614
 Z0.0197
 G01 Z-0.1250
 G00 Z-0.0856
 Z-0.1053
 G01 Z-0.2500
 G00 Z-0.2106
 Z-0.2303
 G01 Z-0.3750
 G00 Z-0.3356
 Z-0.3553
 G01 Z-0.5000
 G00 Z-0.4606
 Z-0.4803
 G01 Z-0.6250
 G00 Z-0.5856
 Z-0.6053
 G01 Z-0.7500
 G00 Z1.0000
 Y3.2500
 Z0.0197
 G01 Z-0.1250
 G00 Z-0.0856
 Z-0.1053
 G01 Z-0.2500
 G00 Z-0.2106
 Z-0.2303
 G01 Z-0.3750
 G00 Z-0.3356
 Z-0.3553
 G01 Z-0.5000
 G00 Z-0.4606
 Z-0.4803
 G01 Z-0.6250
 G00 Z-0.5856
 Z-0.6053
 G01 Z-0.7500
 G00 Z1.0000
 Y1.2500
 Z0.0197
 G01 Z-0.1250
 G00 Z-0.0856
 Z-0.1053
 G01 Z-0.2500
 G00 Z-0.2106
 Z-0.2303
 G01 Z-0.3750
 G00 Z-0.3356
 Z-0.3553
 G01 Z-0.5000
 G00 Z-0.4606
 Z-0.4803
 G01 Z-0.6250
 G00 Z-0.5856
 Z-0.6053
 G01 Z-0.7500
 G00 Z1.0000
 X0.7386
 Z0.0197
 G01 Z-0.1250
 G00 Z-0.0856
 Z-0.1053
 G01 Z-0.2500
 G00 Z-0.2106
 Z-0.2303
 G01 Z-0.3750
 G00 Z-0.3356
 Z-0.3553
 G01 Z-0.5000
 G00 Z-0.4606
 Z-0.4803
 G01 Z-0.6250
 G00 Z-0.5856
 Z-0.6053
 G01 Z-0.7500
 G00 Z1.0000
 (Part: rail_suppport_b Duplicate 2)
 (Operation: Drill, Holes, T2: Drill, 0.25 in diameter, 0.75 in Deep)
 X4.4788 Y3.2500
 Z0.0197
 G01 Z-0.1250
 G00 Z-0.0856
 Z-0.1053
 G01 Z-0.2500
 G00 Z-0.2106
 Z-0.2303
 G01 Z-0.3750
 G00 Z-0.3356
 Z-0.3553
 G01 Z-0.5000
 G00 Z-0.4606
 Z-0.4803
 G01 Z-0.6250
 G00 Z-0.5856
 Z-0.6053
 G01 Z-0.7500
 G00 Z1.0000
 Y5.2500
 Z0.0197
 G01 Z-0.1250
 G00 Z-0.0856
 Z-0.1053
 G01 Z-0.2500
 G00 Z-0.2106
 Z-0.2303
 G01 Z-0.3750
 G00 Z-0.3356
 Z-0.3553
 G01 Z-0.5000
 G00 Z-0.4606
 Z-0.4803
 G01 Z-0.6250
 G00 Z-0.5856
 Z-0.6053
 G01 Z-0.7500
 G00 Z1.0000
 X6.5015
 Z0.0197
 G01 Z-0.1250
 G00 Z-0.0856
 Z-0.1053
 G01 Z-0.2500
 G00 Z-0.2106
 Z-0.2303
 G01 Z-0.3750
 G00 Z-0.3356
 Z-0.3553
 G01 Z-0.5000
 G00 Z-0.4606
 Z-0.4803
 G01 Z-0.6250
 G00 Z-0.5856
 Z-0.6053
 G01 Z-0.7500
 G00 Z1.0000
 Y3.2500
 Z0.0197
 G01 Z-0.1250
 G00 Z-0.0856
 Z-0.1053
 G01 Z-0.2500
 G00 Z-0.2106
 Z-0.2303
 G01 Z-0.3750
 G00 Z-0.3356
 Z-0.3553
 G01 Z-0.5000
 G00 Z-0.4606
 Z-0.4803
 G01 Z-0.6250
 G00 Z-0.5856
 Z-0.6053
 G01 Z-0.7500
 G00 Z1.0000
 Y1.2500
 Z0.0197
 G01 Z-0.1250
 G00 Z-0.0856
 Z-0.1053
 G01 Z-0.2500
 G00 Z-0.2106
 Z-0.2303
 G01 Z-0.3750
 G00 Z-0.3356
 Z-0.3553
 G01 Z-0.5000
 G00 Z-0.4606
 Z-0.4803
 G01 Z-0.6250
 G00 Z-0.5856
 Z-0.6053
 G01 Z-0.7500
 G00 Z1.0000
 X4.4788
 Z0.0197
 G01 Z-0.1250
 G00 Z-0.0856
 Z-0.1053
 G01 Z-0.2500
 G00 Z-0.2106
 Z-0.2303
 G01 Z-0.3750
 G00 Z-0.3356
 Z-0.3553
 G01 Z-0.5000
 G00 Z-0.4606
 Z-0.4803
 G01 Z-0.6250
 G00 Z-0.5856
 Z-0.6053
 G01 Z-0.7500
 G00 Z1.0000
 (Part: rail_suppport_b Duplicate 3)
 (Operation: Drill, Holes, T2: Drill, 0.25 in diameter, 0.75 in Deep)
 X8.2189 Y3.2500
 Z0.0197
 G01 Z-0.1250
 G00 Z-0.0856
 Z-0.1053
 G01 Z-0.2500
 G00 Z-0.2106
 Z-0.2303
 G01 Z-0.3750
 G00 Z-0.3356
 Z-0.3553
 G01 Z-0.5000
 G00 Z-0.4606
 Z-0.4803
 G01 Z-0.6250
 G00 Z-0.5856
 Z-0.6053
 G01 Z-0.7500
 G00 Z1.0000
 Y5.2500
 Z0.0197
 G01 Z-0.1250
 G00 Z-0.0856
 Z-0.1053
 G01 Z-0.2500
 G00 Z-0.2106
 Z-0.2303
 G01 Z-0.3750
 G00 Z-0.3356
 Z-0.3553
 G01 Z-0.5000
 G00 Z-0.4606
 Z-0.4803
 G01 Z-0.6250
 G00 Z-0.5856
 Z-0.6053
 G01 Z-0.7500
 G00 Z1.0000
 X10.2417
 Z0.0197
 G01 Z-0.1250
 G00 Z-0.0856
 Z-0.1053
 G01 Z-0.2500
 G00 Z-0.2106
 Z-0.2303
 G01 Z-0.3750
 G00 Z-0.3356
 Z-0.3553
 G01 Z-0.5000
 G00 Z-0.4606
 Z-0.4803
 G01 Z-0.6250
 G00 Z-0.5856
 Z-0.6053
 G01 Z-0.7500
 G00 Z1.0000
 Y3.2500
 Z0.0197
 G01 Z-0.1250
 G00 Z-0.0856
 Z-0.1053
 G01 Z-0.2500
 G00 Z-0.2106
 Z-0.2303
 G01 Z-0.3750
 G00 Z-0.3356
 Z-0.3553
 G01 Z-0.5000
 G00 Z-0.4606
 Z-0.4803
 G01 Z-0.6250
 G00 Z-0.5856
 Z-0.6053
 G01 Z-0.7500
 G00 Z1.0000
 Y1.2500
 Z0.0197
 G01 Z-0.1250
 G00 Z-0.0856
 Z-0.1053
 G01 Z-0.2500
 G00 Z-0.2106
 Z-0.2303
 G01 Z-0.3750
 G00 Z-0.3356
 Z-0.3553
 G01 Z-0.5000
 G00 Z-0.4606
 Z-0.4803
 G01 Z-0.6250
 G00 Z-0.5856
 Z-0.6053
 G01 Z-0.7500
 G00 Z1.0000
 X8.2189
 Z0.0197
 G01 Z-0.1250
 G00 Z-0.0856
 Z-0.1053
 G01 Z-0.2500
 G00 Z-0.2106
 Z-0.2303
 G01 Z-0.3750
 G00 Z-0.3356
 Z-0.3553
 G01 Z-0.5000
 G00 Z-0.4606
 Z-0.4803
 G01 Z-0.6250
 G00 Z-0.5856
 Z-0.6053
 G01 Z-0.7500
 G00 Z1.0000
 (Part: rail_suppport_b)
 (Operation: Drill, Holes, T2: Drill, 0.25 in diameter, 0.75 in Deep)
 X3.3248 Y9.5763
 Z0.0197
 G01 Z-0.1250
 G00 Z-0.0856
 Z-0.1053
 G01 Z-0.2500
 G00 Z-0.2106
 Z-0.2303
 G01 Z-0.3750
 G00 Z-0.3356
 Z-0.3553
 G01 Z-0.5000
 G00 Z-0.4606
 Z-0.4803
 G01 Z-0.6250
 G00 Z-0.5856
 Z-0.6053
 G01 Z-0.7500
 G00 Z1.0000
 X5.3248
 Z0.0197
 G01 Z-0.1250
 G00 Z-0.0856
 Z-0.1053
 G01 Z-0.2500
 G00 Z-0.2106
 Z-0.2303
 G01 Z-0.3750
 G00 Z-0.3356
 Z-0.3553
 G01 Z-0.5000
 G00 Z-0.4606
 Z-0.4803
 G01 Z-0.6250
 G00 Z-0.5856
 Z-0.6053
 G01 Z-0.7500
 G00 Z1.0000
 Y7.5536
 Z0.0197
 G01 Z-0.1250
 G00 Z-0.0856
 Z-0.1053
 G01 Z-0.2500
 G00 Z-0.2106
 Z-0.2303
 G01 Z-0.3750
 G00 Z-0.3356
 Z-0.3553
 G01 Z-0.5000
 G00 Z-0.4606
 Z-0.4803
 G01 Z-0.6250
 G00 Z-0.5856
 Z-0.6053
 G01 Z-0.7500
 G00 Z1.0000
 X3.3248
 Z0.0197
 G01 Z-0.1250
 G00 Z-0.0856
 Z-0.1053
 G01 Z-0.2500
 G00 Z-0.2106
 Z-0.2303
 G01 Z-0.3750
 G00 Z-0.3356
 Z-0.3553
 G01 Z-0.5000
 G00 Z-0.4606
 Z-0.4803
 G01 Z-0.6250
 G00 Z-0.5856
 Z-0.6053
 G01 Z-0.7500
 G00 Z1.0000
 X1.3248
 Z0.0197
 G01 Z-0.1250
 G00 Z-0.0856
 Z-0.1053
 G01 Z-0.2500
 G00 Z-0.2106
 Z-0.2303
 G01 Z-0.3750
 G00 Z-0.3356
 Z-0.3553
 G01 Z-0.5000
 G00 Z-0.4606
 Z-0.4803
 G01 Z-0.6250
 G00 Z-0.5856
 Z-0.6053
 G01 Z-0.7500
 G00 Z1.0000
 Y9.5763
 Z0.0197
 G01 Z-0.1250
 G00 Z-0.0856
 Z-0.1053
 G01 Z-0.2500
 G00 Z-0.2106
 Z-0.2303
 G01 Z-0.3750
 G00 Z-0.3356
 Z-0.3553
 G01 Z-0.5000
 G00 Z-0.4606
 Z-0.4803
 G01 Z-0.6250
 G00 Z-0.5856
 Z-0.6053
 G01 Z-0.7500
 G00 Z1.0000
 (Operation: Spiral pocket, trench, T3: Mill/router, 0.25 in diameter, 0.75 in Deep)
 M05
 M6 T3  (Mill/router, 0.25 in diameter)
 G43 H3
 M03 S1000
 G00 X0.7498 Y8.6627
 Z0.0197
 G01 Z-0.1250 F6
 X5.8998 F20
 X5.9364 Y8.6993
 X5.8998 Y8.6627
 Y8.4672
 X5.9364 Y8.4306
 X5.8998 Y8.4672
 X0.7498
 X0.7132 Y8.4306
 X0.7498 Y8.4672
 Y8.6627
 X0.6498 Y8.7627
 X5.9998
 X6.0364 Y8.7993
 X5.9998 Y8.7627
 Y8.3672
 X6.0364 Y8.3306
 X5.9998 Y8.3672
 X0.6498
 X0.6132 Y8.3306
 X0.6498 Y8.3672
 Y8.7627
 X0.5498 Y8.8627
 X6.0998
 X6.1364 Y8.8993
 X6.0998 Y8.8627
 Y8.2672
 X6.1364 Y8.2306
 X6.0998 Y8.2672
 X0.5498
 X0.5132 Y8.2306
 X0.5498 Y8.2672
 Y8.8627
 G00 Z1.0000
 X0.4498 Y8.9627
 Z0.0197
 G01 Z-0.1250 F6
 X6.1998 F20
 X6.2364 Y8.9993
 X6.1998 Y8.9627
 Y8.1672
 X6.2364 Y8.1306
 X6.1998 Y8.1672
 X0.4498
 X0.4132 Y8.1306
 X0.4498 Y8.1672
 Y8.9627
 X0.4132 Y8.9993
 X0.4498 Y8.9627
 G00 Z1.0000
 X0.7498 Y8.6627
 Z-0.1053
 G01 Z-0.2500 F6
 X5.8998 F20
 X5.9364 Y8.6993
 X5.8998 Y8.6627
 Y8.4672
 X5.9364 Y8.4306
 X5.8998 Y8.4672
 X0.7498
 X0.7132 Y8.4306
 X0.7498 Y8.4672
 Y8.6627
 X0.6498 Y8.7627
 X5.9998
 X6.0364 Y8.7993
 X5.9998 Y8.7627
 Y8.3672
 X6.0364 Y8.3306
 X5.9998 Y8.3672
 X0.6498
 X0.6132 Y8.3306
 X0.6498 Y8.3672
 Y8.7627
 X0.5498 Y8.8627
 X6.0998
 X6.1364 Y8.8993
 X6.0998 Y8.8627
 Y8.2672
 X6.1364 Y8.2306
 X6.0998 Y8.2672
 X0.5498
 X0.5132 Y8.2306
 X0.5498 Y8.2672
 Y8.8627
 G00 Z1.0000
 X0.4498 Y8.9627
 Z-0.1053
 G01 Z-0.2500 F6
 X6.1998 F20
 X6.2364 Y8.9993
 X6.1998 Y8.9627
 Y8.1672
 X6.2364 Y8.1306
 X6.1998 Y8.1672
 X0.4498
 X0.4132 Y8.1306
 X0.4498 Y8.1672
 Y8.9627
 X0.4132 Y8.9993
 X0.4498 Y8.9627
 G00 Z1.0000
 X0.7498 Y8.6627
 Z-0.2303
 G01 Z-0.3750 F6
 X5.8998 F20
 X5.9364 Y8.6993
 X5.8998 Y8.6627
 Y8.4672
 X5.9364 Y8.4306
 X5.8998 Y8.4672
 X0.7498
 X0.7132 Y8.4306
 X0.7498 Y8.4672
 Y8.6627
 X0.6498 Y8.7627
 X5.9998
 X6.0364 Y8.7993
 X5.9998 Y8.7627
 Y8.3672
 X6.0364 Y8.3306
 X5.9998 Y8.3672
 X0.6498
 X0.6132 Y8.3306
 X0.6498 Y8.3672
 Y8.7627
 X0.5498 Y8.8627
 X6.0998
 X6.1364 Y8.8993
 X6.0998 Y8.8627
 Y8.2672
 X6.1364 Y8.2306
 X6.0998 Y8.2672
 X0.5498
 (Evaluation limit reached)
 M05 M30
