( Made using CamBam - http://www.cambam.info )
( slots 3/14/2013 10:27:51 PM )
( T0 : 0.125 )
G20 G90 G64 G40
G0 Z0.25
( T0 : 0.125 )
T0 M6
( Pocket1 )
G17
G0 X0.6563 Y0.4563
G0 Z0.0625
G1 F6.0 Z-0.125
G1 F20.0 X0.6938
G1 Y1.0438
G1 X0.6563
G1 Y0.4563
G1 F6.0 Y0.425
G1 F20.0 X0.725
G1 Y1.075
G1 X0.625
G1 Y0.425
G1 X0.6563
G1 F6.0 Y0.3625
G1 F20.0 X0.7875
G1 Y1.1375
G1 X0.5625
G1 Y0.3625
G1 X0.6563
G0 Z0.25
G0 Y1.9563
G0 Z0.0625
G1 F6.0 Z-0.125
G1 F20.0 X0.6938
G1 Y2.5438
G1 X0.6563
G1 Y1.9563
G1 F6.0 Y1.925
G1 F20.0 X0.725
G1 Y2.575
G1 X0.625
G1 Y1.925
G1 X0.6563
G1 F6.0 Y1.8625
G1 F20.0 X0.7875
G1 Y2.6375
G1 X0.5625
G1 Y1.8625
G1 X0.6563
G0 Z0.25
G0 Y1.9563
G0 Z-0.0625
G1 F6.0 Z-0.25
G1 F20.0 X0.6938
G1 Y2.5438
G1 X0.6563
G1 Y1.9563
G1 F6.0 Y1.925
G1 F20.0 X0.725
G1 Y2.575
G1 X0.625
G1 Y1.925
G1 X0.6563
G1 F6.0 Y1.8625
G1 F20.0 X0.7875
G1 Y2.6375
G1 X0.5625
G1 Y1.8625
G1 X0.6563
G0 Z0.25
G0 Y1.0438
G0 Z-0.0625
G1 F6.0 Z-0.25
G1 F20.0 Y0.4563
G1 X0.6938
G1 Y1.0438
G1 X0.6563
G1 F6.0 X0.625
G1 F20.0 Y0.425
G1 X0.725
G1 Y1.075
G1 X0.625
G1 Y1.0438
G1 F6.0 X0.5625
G1 F20.0 Y0.3625
G1 X0.7875
G1 Y1.1375
G1 X0.5625
G1 Y1.0438
G0 Z0.25
G0 X0.6563
G0 Z-0.1875
G1 F6.0 Z-0.375
G1 F20.0 Y0.4563
G1 X0.6938
G1 Y1.0438
G1 X0.6563
G1 F6.0 X0.625
G1 F20.0 Y0.425
G1 X0.725
G1 Y1.075
G1 X0.625
G1 Y1.0438
G1 F6.0 X0.5625
G1 F20.0 Y0.3625
G1 X0.7875
G1 Y1.1375
G1 X0.5625
G1 Y1.0438
G0 Z0.25
G0 X0.6563 Y1.9563
G0 Z-0.1875
G1 F6.0 Z-0.375
G1 F20.0 X0.6938
G1 Y2.5438
G1 X0.6563
G1 Y1.9563
G1 F6.0 Y1.925
G1 F20.0 X0.725
G1 Y2.575
G1 X0.625
G1 Y1.925
G1 X0.6563
G1 F6.0 Y1.8625
G1 F20.0 X0.7875
G1 Y2.6375
G1 X0.5625
G1 Y1.8625
G1 X0.6563
G0 Z0.25
G0 Y1.9563
G0 Z-0.3125
G1 F6.0 Z-0.5
G1 F20.0 X0.6938
G1 Y2.5438
G1 X0.6563
G1 Y1.9563
G1 F6.0 Y1.925
G1 F20.0 X0.725
G1 Y2.575
G1 X0.625
G1 Y1.925
G1 X0.6563
G1 F6.0 Y1.8625
G1 F20.0 X0.7875
G1 Y2.6375
G1 X0.5625
G1 Y1.8625
G1 X0.6563
G0 Z0.25
G0 Y1.0438
G0 Z-0.3125
G1 F6.0 Z-0.5
G1 F20.0 Y0.4563
G1 X0.6938
G1 Y1.0438
G1 X0.6563
G1 F6.0 X0.625
G1 F20.0 Y0.425
G1 X0.725
G1 Y1.075
G1 X0.625
G1 Y1.0438
G1 F6.0 X0.5625
G1 F20.0 Y0.3625
G1 X0.7875
G1 Y1.1375
G1 X0.5625
G1 Y1.0438
G0 Z0.25
G0 X0.6563
G0 Z-0.4375
G1 F6.0 Z-0.625
G1 F20.0 Y0.4563
G1 X0.6938
G1 Y1.0438
G1 X0.6563
G1 F6.0 X0.625
G1 F20.0 Y0.425
G1 X0.725
G1 Y1.075
G1 X0.625
G1 Y1.0438
G1 F6.0 X0.5625
G1 F20.0 Y0.3625
G1 X0.7875
G1 Y1.1375
G1 X0.5625
G1 Y1.0438
G0 Z0.25
G0 X0.6563 Y1.9563
G0 Z-0.4375
G1 F6.0 Z-0.625
G1 F20.0 X0.6938
G1 Y2.5438
G1 X0.6563
G1 Y1.9563
G1 F6.0 Y1.925
G1 F20.0 X0.725
G1 Y2.575
G1 X0.625
G1 Y1.925
G1 X0.6563
G1 F6.0 Y1.8625
G1 F20.0 X0.7875
G1 Y2.6375
G1 X0.5625
G1 Y1.8625
G1 X0.6563
G0 Z0.25
G0 Y1.9563
G0 Z-0.5625
G1 F6.0 Z-0.75
G1 F20.0 X0.6938
G1 Y2.5438
G1 X0.6563
G1 Y1.9563
G1 F6.0 Y1.925
G1 F20.0 X0.725
G1 Y2.575
G1 X0.625
G1 Y1.925
G1 X0.6563
G1 F6.0 Y1.8625
G1 F20.0 X0.7875
G1 Y2.6375
G1 X0.5625
G1 Y1.8625
G1 X0.6563
G0 Z0.25
G0 Y1.0438
G0 Z-0.5625
G1 F6.0 Z-0.75
G1 F20.0 Y0.4563
G1 X0.6938
G1 Y1.0438
G1 X0.6563
G1 F6.0 X0.625
G1 F20.0 Y0.425
G1 X0.725
G1 Y1.075
G1 X0.625
G1 Y1.0438
G1 F6.0 X0.5625
G1 F20.0 Y0.3625
G1 X0.7875
G1 Y1.1375
G1 X0.5625
G1 Y1.0438
G0 Z0.25
G0 X0.6563
G0 Z-0.6875
G1 F6.0 Z-0.78
G1 F20.0 Y0.4563
G1 X0.6938
G1 Y1.0438
G1 X0.6563
G1 F6.0 X0.625
G1 F20.0 Y0.425
G1 X0.725
G1 Y1.075
G1 X0.625
G1 Y1.0438
G1 F6.0 X0.5625
G1 F20.0 Y0.3625
G1 X0.7875
G1 Y1.1375
G1 X0.5625
G1 Y1.0438
G0 Z0.25
G0 X0.6563 Y1.9563
G0 Z-0.6875
G1 F6.0 Z-0.78
G1 F20.0 X0.6938
G1 Y2.5438
G1 X0.6563
G1 Y1.9563
G1 F6.0 Y1.925
G1 F20.0 X0.725
G1 Y2.575
G1 X0.625
G1 Y1.925
G1 X0.6563
G1 F6.0 Y1.8625
G1 F20.0 X0.7875
G1 Y2.6375
G1 X0.5625
G1 Y1.8625
G1 X0.6563
G0 Z0.25
M30
