( Made using CamBam - http://www.cambam.info )
( slots_1_4_bit 3/15/2013 10:55:36 PM )
( T0 : 0.25 )
G20 G90 G64 G40
G0 Z0.25
( T0 : 0.25 )
T0 M6
( Pocket1 )
G17
G0 X0.625 Y0.225
G0 Z0.0625
G1 F6.0 Z-0.125
G1 F20.0 Y0.7
G1 Y0.225
G0 Z0.25
G0 Y2.3
G0 Z0.0625
G1 F6.0 Z-0.125
G1 F20.0 Y2.775
G1 Y2.3
G1 F6.0 Z-0.25
G1 F20.0 Y2.775
G1 Y2.3
G0 Z0.25
G0 Y0.7
G0 Z-0.0625
G1 F6.0 Z-0.25
G1 F20.0 Y0.225
G1 Y0.7
G1 F6.0 Z-0.375
G1 F20.0 Y0.225
G1 Y0.7
G0 Z0.25
G0 Y2.3
G0 Z-0.1875
G1 F6.0 Z-0.375
G1 F20.0 Y2.775
G1 Y2.3
G1 F6.0 Z-0.5
G1 F20.0 Y2.775
G1 Y2.3
G0 Z0.25
G0 Y0.7
G0 Z-0.3125
G1 F6.0 Z-0.5
G1 F20.0 Y0.225
G1 Y0.7
G1 F6.0 Z-0.625
G1 F20.0 Y0.225
G1 Y0.7
G0 Z0.25
G0 Y2.3
G0 Z-0.4375
G1 F6.0 Z-0.625
G1 F20.0 Y2.775
G1 Y2.3
G1 F6.0 Z-0.75
G1 F20.0 Y2.775
G1 Y2.3
G0 Z0.25
G0 Y0.7
G0 Z-0.5625
G1 F6.0 Z-0.75
G1 F20.0 Y0.225
G1 Y0.7
G1 F6.0 Z-0.79
G1 F20.0 Y0.225
G1 Y0.7
G0 Z0.25
G0 Y2.3
G0 Z-0.6875
G1 F6.0 Z-0.79
G1 F20.0 Y2.775
G1 Y2.3
G0 Z0.25
M30
