( Made using CamBam - http://www.cambam.info )
( slots_2 3/14/2013 11:49:19 PM )
( T0 : 0.125 )
G20 G90 G64 G40
G0 Z0.25
( T0 : 0.125 )
T0 M6
( Pocket1 )
G17
G0 X0.625 Y0.29
G0 Z0.0625
G1 F6.0 Z-0.2
G1 F20.0 Y0.57
G1 Y0.29
G1 F6.0 X0.6875
G1 F20.0 Y0.6325
G1 X0.5625
G1 Y0.2275
G1 X0.6875
G1 Y0.29
G0 Z0.25
G0 X0.625 Y2.43
G0 Z0.0625
G1 F6.0 Z-0.2
G1 F20.0 Y2.71
G1 Y2.43
G1 F6.0 X0.6875
G1 F20.0 Y2.3675
G1 X0.5625
G1 Y2.7725
G1 X0.6875
G1 Y2.43
G1 F6.0 X0.625
G1 Z-0.4
G1 F20.0 Y2.71
G1 Y2.43
G1 F6.0 X0.6875
G1 F20.0 Y2.3675
G1 X0.5625
G1 Y2.7725
G1 X0.6875
G1 Y2.43
G0 Z0.25
G0 X0.625 Y0.57
G0 Z-0.1375
G1 F6.0 Z-0.4
G1 F20.0 Y0.29
G1 Y0.57
G1 F6.0 X0.6875
G1 F20.0 Y0.6325
G1 X0.5625
G1 Y0.2275
G1 X0.6875
G1 Y0.57
G1 F6.0 X0.625
G1 Z-0.6
G1 F20.0 Y0.29
G1 Y0.57
G1 F6.0 X0.6875
G1 F20.0 Y0.6325
G1 X0.5625
G1 Y0.2275
G1 X0.6875
G1 Y0.57
G0 Z0.25
G0 X0.625 Y2.43
G0 Z-0.3375
G1 F6.0 Z-0.6
G1 F20.0 Y2.71
G1 Y2.43
G1 F6.0 X0.6875
G1 F20.0 Y2.3675
G1 X0.5625
G1 Y2.7725
G1 X0.6875
G1 Y2.43
G1 F6.0 X0.625
G1 Z-0.78
G1 F20.0 Y2.71
G1 Y2.43
G1 F6.0 X0.6875
G1 F20.0 Y2.3675
G1 X0.5625
G1 Y2.7725
G1 X0.6875
G1 Y2.43
G0 Z0.25
G0 X0.625 Y0.57
G0 Z-0.5375
G1 F6.0 Z-0.78
G1 F20.0 Y0.29
G1 Y0.57
G1 F6.0 X0.6875
G1 F20.0 Y0.6325
G1 X0.5625
G1 Y0.2275
G1 X0.6875
G1 Y0.57
G0 Z0.25
M30
