( Made using CamBam - http://www.cambam.info )
( table_slot_mod_4_cam 6/1/2013 10:24:20 PM )
( T0 : 0.25 )
G20 G90 G64 G40
G0 Z0.25
( T0 : 0.25 )
T0 M6
( Cut_slot and hole )
G17
G0 X-0.083 Y0.2329
G0 Z0.0625
G1 F12.0 Z-0.125
G2 F20.0 X-0.1037 Y0.2275 I-0.042 J0.1177
G3 X0.0839 Y0.2355 I0.1037 J-0.2275
G2 X0.0009 Y0.3532 I0.042 J0.1177
G1 Y21.6468
G2 X0.0839 Y21.7645 I0.125 J0.0
G3 X0.1037 Y22.2275 I-0.0839 J0.2355
G2 X0.0 Y22.3506 I0.0213 J0.1232
G1 Y43.6494
G2 X0.083 Y43.7671 I0.125 J0.0
G3 X-0.083 I-0.083 J0.2329
G2 X0.0 Y43.6494 I-0.042 J-0.1177
G1 Y22.3506
G2 X-0.083 Y22.2329 I-0.125 J0.0
G3 Y21.7671 I0.083 J-0.2329
G2 X0.0 Y21.6494 I-0.042 J-0.1177
G1 Y0.3506
G2 X-0.083 Y0.2329 I-0.125 J0.0
G1 F12.0 Z-0.25
G2 F20.0 X-0.1037 Y0.2275 I-0.042 J0.1177
G3 X0.0839 Y0.2355 I0.1037 J-0.2275
G2 X0.0009 Y0.3532 I0.042 J0.1177
G1 Y21.6468
G2 X0.0839 Y21.7645 I0.125 J0.0
G3 X0.1037 Y22.2275 I-0.0839 J0.2355
G2 X0.0 Y22.3506 I0.0213 J0.1232
G1 Y43.6494
G2 X0.083 Y43.7671 I0.125 J0.0
G3 X-0.083 I-0.083 J0.2329
G2 X0.0 Y43.6494 I-0.042 J-0.1177
G1 Y22.3506
G2 X-0.083 Y22.2329 I-0.125 J0.0
G3 Y21.7671 I0.083 J-0.2329
G2 X0.0 Y21.6494 I-0.042 J-0.1177
G1 Y0.3506
G2 X-0.083 Y0.2329 I-0.125 J0.0
G1 F12.0 Z-0.375
G2 F20.0 X-0.1037 Y0.2275 I-0.042 J0.1177
G3 X0.0839 Y0.2355 I0.1037 J-0.2275
G2 X0.0009 Y0.3532 I0.042 J0.1177
G1 Y21.6468
G2 X0.0839 Y21.7645 I0.125 J0.0
G3 X0.1037 Y22.2275 I-0.0839 J0.2355
G2 X0.0 Y22.3506 I0.0213 J0.1232
G1 Y43.6494
G2 X0.083 Y43.7671 I0.125 J0.0
G3 X-0.083 I-0.083 J0.2329
G2 X0.0 Y43.6494 I-0.042 J-0.1177
G1 Y22.3506
G2 X-0.083 Y22.2329 I-0.125 J0.0
G3 Y21.7671 I0.083 J-0.2329
G2 X0.0 Y21.6494 I-0.042 J-0.1177
G1 Y0.3506
G2 X-0.083 Y0.2329 I-0.125 J0.0
G1 F12.0 Z-0.5
G2 F20.0 X-0.1037 Y0.2275 I-0.042 J0.1177
G3 X0.0839 Y0.2355 I0.1037 J-0.2275
G2 X0.0009 Y0.3532 I0.042 J0.1177
G1 Y21.6468
G2 X0.0839 Y21.7645 I0.125 J0.0
G3 X0.1037 Y22.2275 I-0.0839 J0.2355
G2 X0.0 Y22.3506 I0.0213 J0.1232
G1 Y43.6494
G2 X0.083 Y43.7671 I0.125 J0.0
G3 X-0.083 I-0.083 J0.2329
G2 X0.0 Y43.6494 I-0.042 J-0.1177
G1 Y22.3506
G2 X-0.083 Y22.2329 I-0.125 J0.0
G3 Y21.7671 I0.083 J-0.2329
G2 X0.0 Y21.6494 I-0.042 J-0.1177
G1 Y0.3506
G2 X-0.083 Y0.2329 I-0.125 J0.0
G1 F12.0 Z-0.625
G2 F20.0 X-0.1037 Y0.2275 I-0.042 J0.1177
G3 X0.0839 Y0.2355 I0.1037 J-0.2275
G2 X0.0009 Y0.3532 I0.042 J0.1177
G1 Y21.6468
G2 X0.0839 Y21.7645 I0.125 J0.0
G3 X0.1037 Y22.2275 I-0.0839 J0.2355
G2 X0.0 Y22.3506 I0.0213 J0.1232
G1 Y43.6494
G2 X0.083 Y43.7671 I0.125 J0.0
G3 X-0.083 I-0.083 J0.2329
G2 X0.0 Y43.6494 I-0.042 J-0.1177
G1 Y22.3506
G2 X-0.083 Y22.2329 I-0.125 J0.0
G3 Y21.7671 I0.083 J-0.2329
G2 X0.0 Y21.6494 I-0.042 J-0.1177
G1 Y0.3506
G2 X-0.083 Y0.2329 I-0.125 J0.0
G1 F12.0 Z-0.75
G2 F20.0 X-0.1037 Y0.2275 I-0.042 J0.1177
G3 X0.0839 Y0.2355 I0.1037 J-0.2275
G2 X0.0009 Y0.3532 I0.042 J0.1177
G1 Y21.6468
G2 X0.0839 Y21.7645 I0.125 J0.0
G3 X0.1037 Y22.2275 I-0.0839 J0.2355
G2 X0.0 Y22.3506 I0.0213 J0.1232
G1 Y43.6494
G2 X0.083 Y43.7671 I0.125 J0.0
G3 X-0.083 I-0.083 J0.2329
G2 X0.0 Y43.6494 I-0.042 J-0.1177
G1 Y22.3506
G2 X-0.083 Y22.2329 I-0.125 J0.0
G3 Y21.7671 I0.083 J-0.2329
G2 X0.0 Y21.6494 I-0.042 J-0.1177
G1 Y0.3506
G2 X-0.083 Y0.2329 I-0.125 J0.0
G1 F12.0 Z-0.78
G2 F20.0 X-0.1037 Y0.2275 I-0.042 J0.1177
G3 X0.0839 Y0.2355 I0.1037 J-0.2275
G2 X0.0009 Y0.3532 I0.042 J0.1177
G1 Y21.6468
G2 X0.0839 Y21.7645 I0.125 J0.0
G3 X0.1037 Y22.2275 I-0.0839 J0.2355
G2 X0.0 Y22.3506 I0.0213 J0.1232
G1 Y43.6494
G2 X0.083 Y43.7671 I0.125 J0.0
G3 X-0.083 I-0.083 J0.2329
G2 X0.0 Y43.6494 I-0.042 J-0.1177
G1 Y22.3506
G2 X-0.083 Y22.2329 I-0.125 J0.0
G3 Y21.7671 I0.083 J-0.2329
G2 X0.0 Y21.6494 I-0.042 J-0.1177
G1 Y0.3506
G2 X-0.083 Y0.2329 I-0.125 J0.0
( trim )
M6 T0
G0 Z-0.125
G1 F5.0 X0.0 Y0.2456
G1 F20.0 X-0.0313
G1 Y0.2768
G1 X-0.0312 Y21.7232
G1 Y21.7544
G1 X0.0313
G1 Y21.7232
G1 Y0.2768
G1 Y0.2456
G1 X0.0
G1 F5.0 Y0.1518
G1 F20.0 X-0.125
G1 Y0.2768
G1 Y21.7232
G1 Y21.8482
G1 X0.125
G1 Y21.7232
G1 Y0.2768
G1 Y0.1518
G1 X0.0
G0 Z0.25
G0 Y22.2456
G0 Z0.0625
G1 F5.0 Z-0.125
G1 F20.0 X0.0313
G1 Y22.2768
G1 Y43.7232
G1 Y43.7544
G1 X-0.0312
G1 Y43.7232
G1 Y22.2768
G1 Y22.2456
G1 X0.0
G1 F5.0 Y22.1518
G1 F20.0 X0.125
G1 Y22.2768
G1 Y43.7232
G1 Y43.8482
G1 X-0.125
G1 Y43.7232
G1 Y22.2768
G1 Y22.1518
G1 X0.0
G1 F5.0 Y22.2456
G1 Z-0.25
G1 F20.0 X0.0313
G1 Y22.2768
G1 Y43.7232
G1 Y43.7544
G1 X-0.0312
G1 Y43.7232
G1 Y22.2768
G1 Y22.2456
G1 X0.0
G1 F5.0 Y22.1518
G1 F20.0 X0.125
G1 Y22.2768
G1 Y43.7232
G1 Y43.8482
G1 X-0.125
G1 Y43.7232
G1 Y22.2768
G1 Y22.1518
G1 X0.0
G0 Z0.25
G0 Y21.7544
G0 Z-0.0625
G1 F5.0 Z-0.25
G1 F20.0 X0.0313
G1 Y21.7232
G1 Y0.2768
G1 Y0.2456
G1 X-0.0313
G1 Y0.2768
G1 X-0.0312 Y21.7232
G1 Y21.7544
G1 X0.0
G1 F5.0 Y21.8482
G1 F20.0 X0.125
G1 Y21.7232
G1 Y0.2768
G1 Y0.1518
G1 X-0.125
G1 Y0.2768
G1 Y21.7232
G1 Y21.8482
G1 X0.0
G0 Z0.25
M30
