( Made using CamBam - http://www.cambam.info )
( table_slot_mod_4_cam_b 6/2/2013 10:14:23 PM )
( T0 : 0.25 )
G20 G90 G64 G40
G0 Z0.25
( T0 : 0.25 )
T0 M6
( thru )
G17
G0 X0.2029 Y0.1461
G0 Z0.0625
G1 F5.0 Z-0.125
G2 F20.0 X-0.0833 Y0.2357 I-0.2029 J-0.1461
G3 X0.0 Y0.3531 I-0.0417 J0.1179
G3 X0.0833 Y0.2357 I0.125 J0.0004
G2 X0.2029 Y0.1461 I-0.0833 J-0.2357
G0 Z0.25
G0 X0.0 Y15.647
G0 Z0.0625
G1 F5.0 Z-0.125
G3 F20.0 X-0.0833 Y15.7643 I-0.125 J-0.0006
G2 Y16.2357 I0.0833 J0.2357
G3 X0.0 Y16.3536 I-0.0417 J0.1179
G3 X0.0833 Y16.2357 I0.125 J0.0
G2 Y15.7643 I-0.0833 J-0.2357
G3 X0.0 Y15.647 I0.0417 J-0.1179
G0 Z0.25
G0 Y31.647
G0 Z0.0625
G1 F5.0 Z-0.125
G2 F20.0 X0.0833 Y31.7643 I0.125 J-0.0006
G3 X-0.0833 I-0.0833 J0.2357
G2 X0.0 Y31.647 I-0.0417 J-0.1179
G1 F5.0 Z-0.25
G2 F20.0 X0.0833 Y31.7643 I0.125 J-0.0006
G3 X-0.0833 I-0.0833 J0.2357
G2 X0.0 Y31.647 I-0.0417 J-0.1179
G0 Z0.25
G0 Y16.3536
G0 Z-0.0625
G1 F5.0 Z-0.25
G3 F20.0 X0.0833 Y16.2357 I0.125 J0.0
G2 Y15.7643 I-0.0833 J-0.2357
G3 X0.0 Y15.647 I0.0417 J-0.1179
G3 X-0.0833 Y15.7643 I-0.125 J-0.0006
G2 Y16.2357 I0.0833 J0.2357
G3 X0.0 Y16.3536 I-0.0417 J0.1179
G0 Z0.25
G0 Y0.3531
G0 Z-0.0625
G1 F5.0 Z-0.25
G3 F20.0 X0.0833 Y0.2357 I0.125 J0.0004
G2 X-0.0833 I-0.0833 J-0.2357
G3 X0.0 Y0.3531 I-0.0417 J0.1179
G1 F5.0 Z-0.375
G3 F20.0 X0.0833 Y0.2357 I0.125 J0.0004
G2 X-0.0833 I-0.0833 J-0.2357
G3 X0.0 Y0.3531 I-0.0417 J0.1179
G0 Z0.25
G0 Y15.647
G0 Z-0.1875
G1 F5.0 Z-0.375
G3 F20.0 X-0.0833 Y15.7643 I-0.125 J-0.0006
G2 Y16.2357 I0.0833 J0.2357
G3 X0.0 Y16.3536 I-0.0417 J0.1179
G3 X0.0833 Y16.2357 I0.125 J0.0
G2 Y15.7643 I-0.0833 J-0.2357
G3 X0.0 Y15.647 I0.0417 J-0.1179
G0 Z0.25
G0 Y31.647
G0 Z-0.1875
G1 F5.0 Z-0.375
G2 F20.0 X0.0833 Y31.7643 I0.125 J-0.0006
G3 X-0.0833 I-0.0833 J0.2357
G2 X0.0 Y31.647 I-0.0417 J-0.1179
G1 F5.0 Z-0.5
G2 F20.0 X0.0833 Y31.7643 I0.125 J-0.0006
G3 X-0.0833 I-0.0833 J0.2357
G2 X0.0 Y31.647 I-0.0417 J-0.1179
G0 Z0.25
G0 Y16.3536
G0 Z-0.3125
G1 F5.0 Z-0.5
G3 F20.0 X0.0833 Y16.2357 I0.125 J0.0
G2 Y15.7643 I-0.0833 J-0.2357
G3 X0.0 Y15.647 I0.0417 J-0.1179
G3 X-0.0833 Y15.7643 I-0.125 J-0.0006
G2 Y16.2357 I0.0833 J0.2357
G3 X0.0 Y16.3536 I-0.0417 J0.1179
G0 Z0.25
G0 Y0.3531
G0 Z-0.3125
G1 F5.0 Z-0.5
G3 F20.0 X0.0833 Y0.2357 I0.125 J0.0004
G2 X-0.0833 I-0.0833 J-0.2357
G3 X0.0 Y0.3531 I-0.0417 J0.1179
G1 F5.0 Z-0.625
G3 F20.0 X0.0833 Y0.2357 I0.125 J0.0004
G2 X-0.0833 I-0.0833 J-0.2357
G3 X0.0 Y0.3531 I-0.0417 J0.1179
G0 Z0.25
G0 Y15.647
G0 Z-0.4375
G1 F5.0 Z-0.625
G3 F20.0 X-0.0833 Y15.7643 I-0.125 J-0.0006
G2 Y16.2357 I0.0833 J0.2357
G3 X0.0 Y16.3536 I-0.0417 J0.1179
G3 X0.0833 Y16.2357 I0.125 J0.0
G2 Y15.7643 I-0.0833 J-0.2357
G3 X0.0 Y15.647 I0.0417 J-0.1179
G0 Z0.25
G0 Y31.647
G0 Z-0.4375
G1 F5.0 Z-0.625
G2 F20.0 X0.0833 Y31.7643 I0.125 J-0.0006
G3 X-0.0833 I-0.0833 J0.2357
G2 X0.0 Y31.647 I-0.0417 J-0.1179
G1 F5.0 Z-0.75
G2 F20.0 X0.0833 Y31.7643 I0.125 J-0.0006
G3 X-0.0833 I-0.0833 J0.2357
G2 X0.0 Y31.647 I-0.0417 J-0.1179
G0 Z0.25
G0 Y16.3536
G0 Z-0.5625
G1 F5.0 Z-0.75
G3 F20.0 X0.0833 Y16.2357 I0.125 J0.0
G2 Y15.7643 I-0.0833 J-0.2357
G3 X0.0 Y15.647 I0.0417 J-0.1179
G3 X-0.0833 Y15.7643 I-0.125 J-0.0006
G2 Y16.2357 I0.0833 J0.2357
G3 X0.0 Y16.3536 I-0.0417 J0.1179
G0 Z0.25
G0 Y0.3531
G0 Z-0.5625
G1 F5.0 Z-0.75
G3 F20.0 X0.0833 Y0.2357 I0.125 J0.0004
G2 X-0.0833 I-0.0833 J-0.2357
G3 X0.0 Y0.3531 I-0.0417 J0.1179
G1 F5.0 Z-0.78
G3 F20.0 X0.0833 Y0.2357 I0.125 J0.0004
G2 X-0.0833 I-0.0833 J-0.2357
G3 X0.0 Y0.3531 I-0.0417 J0.1179
G0 Z0.25
G0 Y15.647
G0 Z-0.6875
G1 F5.0 Z-0.78
G3 F20.0 X-0.0833 Y15.7643 I-0.125 J-0.0006
G2 Y16.2357 I0.0833 J0.2357
G3 X0.0 Y16.3536 I-0.0417 J0.1179
G3 X0.0833 Y16.2357 I0.125 J0.0
G2 Y15.7643 I-0.0833 J-0.2357
G3 X0.0 Y15.647 I0.0417 J-0.1179
G0 Z0.25
G0 Y31.647
G0 Z-0.6875
G1 F5.0 Z-0.78
G2 F20.0 X0.0833 Y31.7643 I0.125 J-0.0006
G3 X-0.0833 I-0.0833 J0.2357
G2 X0.0 Y31.647 I-0.0417 J-0.1179
( top_slot )
T0 M6
G0 Z0.25
G0 Y16.2483
G0 Z0.0625
G1 F5.0 Z-0.125
G1 F20.0 X-0.0313
G1 X-0.0312 Y31.7517
G1 X0.0313
G1 Y16.2483
G1 X0.0
G1 F5.0 Y16.1545
G1 F20.0 X-0.125
G1 Y31.8455
G1 X0.125
G1 Y16.1545
G1 X0.0
G1 F5.0 Y16.2483
G1 Z-0.25
G1 F20.0 X-0.0313
G1 X-0.0312 Y31.7517
G1 X0.0313
G1 Y16.2483
G1 X0.0
G1 F5.0 Y16.1545
G1 F20.0 X-0.125
G1 Y31.8455
G1 X0.125
G1 Y16.1545
G1 X0.0
( bottom_slot )
T0 M6
G0 Z0.25
G0 Y0.2483
G0 Z0.0625
G1 F5.0 Z-0.125
G1 F20.0 X0.0313
G1 Y15.7517
G1 X-0.0313
G1 Y0.2483
G1 X0.0
G1 F5.0 Y0.1545
G1 F20.0 X0.125
G1 Y15.8455
G1 X-0.125
G1 Y0.1545
G1 X0.0
G1 F5.0 Y0.2483
G1 Z-0.25
G1 F20.0 X0.0313
G1 Y15.7517
G1 X-0.0313
G1 Y0.2483
G1 X0.0
G1 F5.0 Y0.1545
G1 F20.0 X0.125
G1 Y15.8455
G1 X-0.125
G1 Y0.1545
G1 X0.0
G0 Z0.25
M30
