( Made using CamBam - http://www.cambam.info )
( z_limit_bracket 2/22/2013 11:23:16 PM )
( T0 : 0.125 )
G20 G90 G64 G40
G0 Z0.5
( T0 : 0.125 )
T0 M6
( Drill1 )
G17
G0 X0.75 Y0.625
G98
G81 X0.75 Y0.625 Z-0.08 R0.0 F6.0
G81 Y0.125 Z-0.08
G81 X1.945 Z-0.08
G81 X2.875 Y0.5 Z-0.08
G80
( Profile1 )
G0 Z0.5
G0 X-0.0259 Y-0.0259
G0 Z0.0625
G1 F6.0 Z-0.01
G3 F20.0 X0.0625 Y-0.0625 I0.0884 J0.0884
G1 X1.5
G1 X2.9375
G3 X3.0625 Y0.0625 I0.0 J0.125
G1 Y0.6875
G3 X2.9375 Y0.8125 I-0.125 J0.0
G1 X1.5
G1 X0.0625
G3 X-0.0625 Y0.6875 I0.0 J-0.125
G1 Y0.0625
G3 X-0.0259 Y-0.0259 I0.125 J0.0
G1 F6.0 Z-0.02
G3 F20.0 X0.0625 Y-0.0625 I0.0884 J0.0884
G1 X1.5
G1 X2.9375
G3 X3.0625 Y0.0625 I0.0 J0.125
G1 Y0.6875
G3 X2.9375 Y0.8125 I-0.125 J0.0
G1 X1.5
G1 X0.0625
G3 X-0.0625 Y0.6875 I0.0 J-0.125
G1 Y0.0625
G3 X-0.0259 Y-0.0259 I0.125 J0.0
G1 F6.0 Z-0.03
G3 F20.0 X0.0625 Y-0.0625 I0.0884 J0.0884
G1 X1.5
G1 X2.9375
G3 X3.0625 Y0.0625 I0.0 J0.125
G1 Y0.6875
G3 X2.9375 Y0.8125 I-0.125 J0.0
G1 X1.5
G1 X0.0625
G3 X-0.0625 Y0.6875 I0.0 J-0.125
G1 Y0.0625
G3 X-0.0259 Y-0.0259 I0.125 J0.0
G1 F6.0 Z-0.04
G3 F20.0 X0.0625 Y-0.0625 I0.0884 J0.0884
G1 X1.5
G1 X2.9375
G3 X3.0625 Y0.0625 I0.0 J0.125
G1 Y0.6875
G3 X2.9375 Y0.8125 I-0.125 J0.0
G1 X1.5
G1 X0.0625
G3 X-0.0625 Y0.6875 I0.0 J-0.125
G1 Y0.0625
G3 X-0.0259 Y-0.0259 I0.125 J0.0
G1 F6.0 Z-0.05
G3 F20.0 X0.0625 Y-0.0625 I0.0884 J0.0884
G1 X1.5
G1 X2.9375
G3 X3.0625 Y0.0625 I0.0 J0.125
G1 Y0.6875
G3 X2.9375 Y0.8125 I-0.125 J0.0
G1 X1.5
G1 X0.0625
G3 X-0.0625 Y0.6875 I0.0 J-0.125
G1 Y0.0625
G3 X-0.0259 Y-0.0259 I0.125 J0.0
G1 F6.0 Z-0.06
G3 F20.0 X0.0625 Y-0.0625 I0.0884 J0.0884
G1 X1.5
G1 X2.9375
G3 X3.0625 Y0.0625 I0.0 J0.125
G1 Y0.6875
G3 X2.9375 Y0.8125 I-0.125 J0.0
G1 X1.5
G1 X0.0625
G3 X-0.0625 Y0.6875 I0.0 J-0.125
G1 Y0.0625
G3 X-0.0259 Y-0.0259 I0.125 J0.0
G1 F6.0 Z-0.07
G3 F20.0 X0.0625 Y-0.0625 I0.0884 J0.0884
G1 X1.5
G1 X2.9375
G3 X3.0625 Y0.0625 I0.0 J0.125
G1 Y0.6875
G3 X2.9375 Y0.8125 I-0.125 J0.0
G1 X1.5
G1 X0.0625
G3 X-0.0625 Y0.6875 I0.0 J-0.125
G1 Y0.0625
G3 X-0.0259 Y-0.0259 I0.125 J0.0
G1 F6.0 Z-0.08
G3 F20.0 X0.0625 Y-0.0625 I0.0884 J0.0884
G1 X1.5
G1 X2.9375
G3 X3.0625 Y0.0625 I0.0 J0.125
G1 Y0.6875
G3 X2.9375 Y0.8125 I-0.125 J0.0
G1 X1.5
G1 X0.0625
G3 X-0.0625 Y0.6875 I0.0 J-0.125
G1 Y0.0625
G3 X-0.0259 Y-0.0259 I0.125 J0.0
G0 Z0.5
M30
